!!!!SEGMENT: pl-cz--iii-460--001_kuci-mateusz--symfonia-f-allegro.krn
!!!cenid: 17xx:939
!!!COM: Kuci, Mateusz
!!!COM-rismID: pe30017582
!!!CDT:
!!!CNT:
!!!OPR: Symfonia F
!!!OTL: Allegro
!!!OMV: 001
!!!PDT:
!!!AGN: Secular
!!!SMS-siglum: PL-CZ
!!!SMS-shelfmark: III-460
!!!SMS-shelfwork: 001-001 M
!!!SMS-variant:
!!!SMS-altvar:
!!!NIFC-rismSourceID: 300000666
!!!NIFC-islandoraID: pl-cz:38658
!!!URL-pdf-islandora: https://repozytorium.nifc.pl/islandora/object/pl-cz%3A38658/datastream/PDF/view
!!!URL-scan:
!!!ONB-nifc: UWAGA: części Symfonii: Allegro, Adagio, Presto
!!!AIN: 2 cor 1 fagot 2 oboe 1 organ 1 viola 2 violn
!!!key: F
**kern	**dynam	**kern	**dynam	**kern	**dynam	**kern	**dynam	**kern	**dynam	**kern	**dynam	**kern	**kern	**dynam	**kern	**dynam
*part9	*part9	*part8	*part8	*part7	*part7	*part6	*part6	*part5	*part5	*part4	*part4	*part3	*part2	*part2	*part1	*part1
*group4	*	*group3	*	*group3	*	*group3	*	*group2	*	*group2	*	*group1	*group1	*	*group1	*
*staff9	*	*staff8	*	*staff7	*	*staff6	*	*staff5	*	*staff4	*	*staff3	*staff2	*	*staff1	*
*I"Baſso	*	*I"Viola	*	*I"Violino Secondo	*	*I"Violino Primo	*	*I"Cornu Secondo Toni F.	*	*I"Cornu Primo Toni F	*	*I"Fagotto Solo	*I"Oboe Secondo	*	*I"Oboa Primo	*
*I'b	*	*I'vla	*	*I'vl 2	*	*I'vl 1	*	*I'cor 2	*	*I'cor 1	*	*I'fag	*I'ob 2	*	*I'ob 1	*
*Iorgan	*	*Iviola	*	*Ivioln	*	*Ivioln	*	*Icor	*	*Icor	*	*Ifagot	*Ioboe	*	*Ioboe	*
*ICklav	*	*ICstr	*	*ICstr	*	*ICstr	*	*ICbras	*	*ICbras	*	*ICww	*ICww	*	*ICww	*
*clefF4	*	*clefC3	*	*clefG2	*	*clefG2	*	*clefG2	*	*clefG2	*	*clefF4	*clefG2	*	*clefG2	*
*ITrd0c0	*	*	*	*	*	*	*	*ITrd4c7	*	*ITrd4c7	*	*	*	*	*	*
*k[b-]	*	*k[b-]	*	*k[b-]	*	*k[b-]	*	*k[b-]	*	*k[b-]	*	*k[b-]	*k[b-]	*	*k[b-]	*
*F:	*	*F:	*	*F:	*	*F:	*	*F:	*	*F:	*	*F:	*F:	*	*F:	*
*M3/4	*	*M3/4	*	*M3/4	*	*M3/4	*	*M3/4	*	*M3/4	*	*M3/4	*M3/4	*	*M3/4	*
=1	=1	=1	=1	=1	=1	=1	=1	=1	=1	=1	=1	=1	=1	=1	=1	=1
*2\right	*2\right	*2\right	*2\right	*2\right	*2\right	*2\right	*2\right	*2\right	*2\right	*2\right	*2\right	*2\right	*2\right	*2\right	*2\right	*2\right
!!LO:TX:t=P:problem:all\middle or right:global
!	!	!	!	!	!	!	!	!LO:TX:a:t=Allegro	!	!LO:TX:a:t=Allegro	!	!	!LO:TX:a:t=Allegro	!	!LO:TX:a:t=Allegro	!
!LO:TX:a:t=Allegro	!	!LO:TX:a:t=Allegro	!LO:DY:b:Bi:t=pia	!LO:TX:a:t=Allegro.	!LO:DY:a:Bi:t=pia&colon;	!LO:TX:a:t=Allegro	!LO:DY:b:t=pp&colon;	!LO:TX:a:t=5	!	!LO:TX:a:t=5	!	!LO:TX:a:t=[Tacet]	!LO:TX:a:t=4	!	!LO:TX:a:t=4	!
!	!	!	!	!	!	!	!	!LO:N:vis=00	!	!LO:N:vis=00	!	!	!LO:N:vis=00	!	!LO:N:vis=00	!
4FF/	p	8f\L	p	(<2.A/	p	(2.f/	pp	0.r	.	0.r	.	2.ryy	0.r	.	0.r	.
.	.	8f\	.	.	.	.	.	.	.	.	.	.	.	.	.	.
4r	.	8f\	.	.	.	.	.	.	.	.	.	.	.	.	.	.
.	.	8f\	.	.	.	.	.	.	.	.	.	.	.	.	.	.
4r	.	8f\	.	.	.	.	.	.	.	.	.	.	.	.	.	.
.	.	8f\J	.	.	.	.	.	.	.	.	.	.	.	.	.	.
=2	=2	=2	=2	=2	=2	=2	=2	=2	=2	=2	=2	=2	=2	=2	=2	=2
!LO:TX:a:t=4	!	!	!	!	!	!	!	!	!	!	!	!	!	!	!	!
!LO:N:vis=00	!	!	!	!	!	!	!	!	!	!	!	!	!	!	!	!
0.r	.	8f\L	.	2.d/	.	2.b-\	.	.	.	.	.	2.ryy	.	.	.	.
.	.	8f\	.	.	.	.	.	.	.	.	.	.	.	.	.	.
.	.	8f\	.	.	.	.	.	.	.	.	.	.	.	.	.	.
.	.	8f\	.	.	.	.	.	.	.	.	.	.	.	.	.	.
.	.	8f\	.	.	.	.	.	.	.	.	.	.	.	.	.	.
.	.	8f\J	.	.	.	.	.	.	.	.	.	.	.	.	.	.
=3	=3	=3	=3	=3	=3	=3	=3	=3	=3	=3	=3	=3	=3	=3	=3	=3
*	*	*tremolo	*	*	*	*	*	*	*	*	*	*	*	*	*	*
.	.	8f\L	.	2.c/	.	2.a/	.	.	.	.	.	2.ryy	.	.	.	.
.	.	8f\	.	.	.	.	.	.	.	.	.	.	.	.	.	.
.	.	8f\	.	.	.	.	.	.	.	.	.	.	.	.	.	.
.	.	8f\	.	.	.	.	.	.	.	.	.	.	.	.	.	.
.	.	8f\	.	.	.	.	.	.	.	.	.	.	.	.	.	.
.	.	8f\J	.	.	.	.	.	.	.	.	.	.	.	.	.	.
=4	=4	=4	=4	=4	=4	=4	=4	=4	=4	=4	=4	=4	=4	=4	=4	=4
.	.	8f\L	.	2.b-\)	.	2.dd\)	.	.	.	.	.	2.ryy	.	.	.	.
.	.	8f\	.	.	.	.	.	.	.	.	.	.	.	.	.	.
.	.	8f\	.	.	.	.	.	.	.	.	.	.	.	.	.	.
.	.	8f\	.	.	.	.	.	.	.	.	.	.	.	.	.	.
.	.	8f\	.	.	.	.	.	.	.	.	.	.	.	.	.	.
.	.	8f\J	.	.	.	.	.	.	.	.	.	.	.	.	.	.
=5	=5	=5	=5	=5	=5	=5	=5	=5	=5	=5	=5	=5	=5	=5	=5	=5
!	!	!	!	!	!	!	!	!	!	!	!	!	!	!LO:DY:b:Bi:t=p&colon;	!	!
.	.	8f\L	.	4a/	.	4cc\	.	2.r	.	2.r	.	2.ryy	4aa\	p	4ccc\	pp
.	.	8f\	.	.	.	.	.	.	.	.	.	.	.	.	.	.
.	.	8f\	.	8.a/L	.	8.cc\L	.	.	.	.	.	.	8.aa\L	.	8.ccc\L	.
.	.	8f\	.	.	.	.	.	.	.	.	.	.	.	.	.	.
.	.	.	.	16b-/Jk	.	16dd\Jk	.	.	.	.	.	.	16bb-\Jk	.	16ddd\Jk	.
.	.	8f\	.	4a/	.	4cc\	.	.	.	.	.	.	4aa\	.	4ccc\	.
.	.	8f\J	.	.	.	.	.	.	.	.	.	.	.	.	.	.
*	*	*Xtremolo	*	*	*	*	*	*	*	*	*	*	*	*	*	*
=6	=6	=6	=6	=6	=6	=6	=6	=6	=6	=6	=6	=6	=6	=6	=6	=6
.	.	.	.	.	.	.	.	.	.	.	.	.	8qqaa/	.	(8qqccc/	.
!	!	!	!	!	!	!	!	!	!LO:DY:a:Bi:t=p&colon;	!	!LO:DY:a:Bi:t=p&colon;	!	!	!	!	!
4C/	.	4c\	.	4g/	.	4b-|\	.	4c/	p	4g\	p	2.ryy	4gg\	.	4bb-\)	.
4FF/	.	4f\	.	4f/	.	4a|\	.	4F/	.	4f\	.	.	4ff\	.	4aa\	.
4r	.	4r	.	4r	.	4r	.	4r	.	4r	.	.	4r	.	4r	.
=7	=7	=7	=7	=7	=7	=7	=7	=7	=7	=7	=7	=7	=7	=7	=7	=7
*	*	*tremolo	*	*	*	*	*	*	*	*	*	*	*	*	*	*
!	!	!	!	!	!	!	!LO:HP:a	!LO:TX:a:t=5	!	!LO:TX:a:t=5	!	!	!LO:TX:a:t=4	!	!LO:TX:a:t=4	!
!	!	!	!	!	!	!	!	!LO:N:vis=00	!	!LO:N:vis=00	!	!	!LO:N:vis=00	!	!LO:N:vis=00	!
4F\	.	8f\L	.	(<2.A/	.	2.f/	<	0.r	.	0.r	.	2.ryy	0.r	.	0.r	.
.	.	8f\	.	.	.	.	.	.	.	.	.	.	.	.	.	.
4r	.	8f\	.	.	.	.	.	.	.	.	.	.	.	.	.	.
.	.	8f\	.	.	.	.	.	.	.	.	.	.	.	.	.	.
4r	.	8f\	.	.	.	.	.	.	.	.	.	.	.	.	.	.
.	.	8f\J	.	.	.	.	.	.	.	.	.	.	.	.	.	.
=8	=8	=8	=8	=8	=8	=8	=8	=8	=8	=8	=8	=8	=8	=8	=8	=8
!LO:TX:a:t=1	!	!	!	!	!	!	!	!	!	!	!	!	!	!	!	!
2.r	.	8f\L	.	2.d/	.	2.b-/	.	.	.	.	.	2.ryy	.	.	.	.
.	.	8f\	.	.	.	.	.	.	.	.	.	.	.	.	.	.
.	.	8f\	.	.	.	.	.	.	.	.	.	.	.	.	.	.
.	.	8f\	.	.	.	.	.	.	.	.	.	.	.	.	.	.
.	.	8f\	.	.	.	.	.	.	.	.	.	.	.	.	.	.
.	.	8f\J	.	.	.	.	.	.	.	.	.	.	.	.	.	.
=9	=9	=9	=9	=9	=9	=9	=9	=9	=9	=9	=9	=9	=9	=9	=9	=9
4F\	.	8f\L	.	2.c/	.	2.a/	.	.	.	.	.	2.ryy	.	.	.	.
.	.	8f\	.	.	.	.	.	.	.	.	.	.	.	.	.	.
4r	.	8f\	.	.	.	.	.	.	.	.	.	.	.	.	.	.
.	.	8f\	.	.	.	.	.	.	.	.	.	.	.	.	.	.
4r	.	8f\	.	.	.	.	.	.	.	.	.	.	.	.	.	.
.	.	8f\J	.	.	.	.	.	.	.	.	.	.	.	.	.	.
=10	=10	=10	=10	=10	=10	=10	=10	=10	=10	=10	=10	=10	=10	=10	=10	=10
!LO:TX:a:t=2	!	!	!	!	!	!	!	!	!	!	!	!	!	!	!	!
!LO:N:vis=0	!	!	!	!	!	!	!	!	!	!	!	!	!	!	!	!
1.r	.	8f\L	.	2.b-\)	.	2.dd\	[[	.	.	.	.	2.ryy	.	.	.	.
.	.	8f\	.	.	.	.	.	.	.	.	.	.	.	.	.	.
.	.	8f\	.	.	.	.	.	.	.	.	.	.	.	.	.	.
.	.	8f\	.	.	.	.	.	.	.	.	.	.	.	.	.	.
.	.	8f\	.	.	.	.	.	.	.	.	.	.	.	.	.	.
.	.	8f\J	.	.	.	.	.	.	.	.	.	.	.	.	.	.
!	!	!LO:LB:g=original	!	!	!	!	!	!	!	!	!	!	!	!	!	!
=11	=11	=11	=11	=11	=11	=11	=11	=11	=11	=11	=11	=11	=11	=11	=11	=11
.	.	8f\L	.	4a/	.	4cc|\	.	2.r	.	2.r	.	2.ryy	4r	.	4r	.
.	.	8f\	.	.	.	.	.	.	.	.	.	.	.	.	.	.
.	.	8f\	.	8.cc\L	.	8.aa\L	.	.	.	.	.	.	8.cc\L	.	8.aa\L	.
.	.	8f\	.	.	.	.	.	.	.	.	.	.	.	.	.	.
.	.	.	.	16dd\Jk	.	16bb-\Jk	.	.	.	.	.	.	16dd\Jk	.	16bb-\Jk	.
.	.	8f\	.	4cc\	.	4aa\	.	.	.	.	.	.	4cc\	.	4aa\	.
.	.	8f\J	.	.	.	.	.	.	.	.	.	.	.	.	.	.
*	*	*Xtremolo	*	*	*	*	*	*	*	*	*	*	*	*	*	*
!	!	!	!	!LO:LB:g=original	!	!LO:LB:g=original	!	!	!	!	!	!	!	!	!	!
=12	=12	=12	=12	=12	=12	=12	=12	=12	=12	=12	=12	=12	=12	=12	=12	=12
4C/	.	4c\	.	4b-/	.	4gg\	.	4c/	.	4g\	.	2.ryy	4b-X\	.	4gg\	.
!LO:TX:t=P:problem=mixed beam	!	!	!	!	!	!	!	!	!	!	!	!	!	!	!	!
8F\L	.	4f\	.	4a/	.	4ff\	.	4f\	.	4a\	.	.	4a/	.	4ff\	.
8FF/	.	.	.	.	.	.	.	.	.	.	.	.	.	.	.	.
8AA/	.	4r	.	4r	.	4r	.	4r	.	4r	.	.	4r	.	4r	.
8FF/J	.	.	.	.	.	.	.	.	.	.	.	.	.	.	.	.
=13	=13	=13	=13	=13	=13	=13	=13	=13	=13	=13	=13	=13	=13	=13	=13	=13
!LO:TX:t=P:problem=mixed beam	!	!	!	!	!	!	!	!	!	!LO:TX:a:t=1	!	!	!LO:TX:a:t=1	!	!LO:TX:a:t=1	!
8BB-/L	p	8f\L	p	2.b-\	.	2.dd\	.	2.r	.	2.r	.	2.ryy	2.r	.	2.r	.
8B-\	.	8f\	.	.	.	.	.	.	.	.	.	.	.	.	.	.
8B-\	.	8f\	.	.	.	.	.	.	.	.	.	.	.	.	.	.
8B-\	.	8f\	.	.	.	.	.	.	.	.	.	.	.	.	.	.
8B-\	.	8f\	.	.	.	.	.	.	.	.	.	.	.	.	.	.
8B-\J	.	8f\J	.	.	.	.	.	.	.	.	.	.	.	.	.	.
!LO:LB:g=original	!	!	!	!	!	!	!	!	!	!	!	!	!	!	!	!
=14	=14	=14	=14	=14	=14	=14	=14	=14	=14	=14	=14	=14	=14	=14	=14	=14
*	*	*	*	*	*	*	*	*	*	*2\right	*	*	*2\right	*	*2\right	*
!	!	!	!	!	!	!	!	!	!LO:DY:b:Bi:t=p&colon;	!	!LO:DY:a	!	!	!	!	!
4B-\	.	4f\	.	8bb-'\L	.	8ddd\L	.	2.F/	p	[2.f\	pp	2.ryy	2.b-\	p	2.dd\	pp
.	.	.	.	8ff'\	.	8bb-\	.	.	.	.	.	.	.	.	.	.
4r	.	4r	.	8dd'\	.	8ff\	.	.	.	.	.	.	.	.	.	.
.	.	.	.	8b-'\	.	8dd\	.	.	.	.	.	.	.	.	.	.
4r	.	4r	.	8f'\	.	8b-\	.	.	.	.	.	.	.	.	.	.
.	.	.	.	8d'\J	.	8f\J	.	.	.	.	.	.	.	.	.	.
=15	=15	=15	=15	=15	=15	=15	=15	=15	=15	=15	=15	=15	=15	=15	=15	=15
*	*	*tremolo	*	*	*	*	*	*	*	*	*	*	*	*	*	*
!LO:TX:t=P:problem=mixed beam	!	!	!	!	!	!	!	!	!	!	!	!	!	!	!	!
8FF/L	.	8f\L	.	2.a/	.	2.cc\	.	4F/	.	4f\]	.	2.ryy	4a/	.	4cc\	.
8F\	.	8f\	.	.	.	.	.	.	.	.	.	.	.	.	.	.
8F\	.	8f\	.	.	.	.	.	4r	.	4r	.	.	4r	.	4r	.
8F\	.	8f\	.	.	.	.	.	.	.	.	.	.	.	.	.	.
8F\	.	8f\	.	.	.	.	.	4r	.	4r	.	.	4r	.	4r	.
8F\J	.	8f\J	.	.	.	.	.	.	.	.	.	.	.	.	.	.
*	*	*Xtremolo	*	*	*	*	*	*	*	*	*	*	*	*	*	*
=16	=16	=16	=16	=16	=16	=16	=16	=16	=16	=16	=16	=16	=16	=16	=16	=16
4F\	.	4f\	.	8aa'\L	.	8ccc\L	.	2.F/	.	2.f\	.	2.ryy	2.a/	.	2.cc\	.
.	.	.	.	8ff'\	.	8aa\	.	.	.	.	.	.	.	.	.	.
4r	.	4r	.	8cc'\	.	8ff\	.	.	.	.	.	.	.	.	.	.
.	.	.	.	8a'\	.	8cc\	.	.	.	.	.	.	.	.	.	.
4ryy	.	4r	.	8f'\	.	8a\	.	.	.	.	.	.	.	.	.	.
.	.	.	.	8c'\J	.	8f\J	.	.	.	.	.	.	.	.	.	.
!	!	!	!	!	!	!	!	!	!	!	!	!	!LO:LB:g=original	!	!	!
=17	=17	=17	=17	=17	=17	=17	=17	=17	=17	=17	=17	=17	=17	=17	=17	=17
!	!LO:DY:b:Bi:t=for	!	!	!	!LO:DY:b:Bi:t=for	!	!LO:DY:b:Bi:t=for	!	!	!	!LO:DY:b:Bi:t=for	!	!	!	!	!
2En\	f	8c\L	.	2g/	f	2b-\	f	2c/	f	(2g\	f	2.ryy	(2gg\	f	2bb-\	f
.	.	8c\	.	.	.	.	.	.	.	.	.	.	.	.	.	.
.	.	8c\	.	.	.	.	.	.	.	.	.	.	.	.	.	.
.	.	8c\	.	.	.	.	.	.	.	.	.	.	.	.	.	.
!	!	!	!	!	!	!	!LO:DY:b:Bi:t=p&colon;	!	!	!	!	!	!	!	!	!
4F\	p	8c\	.	4f/	p	4a/	p	4f\	p	4a\)	p	.	4ff\)	p	4aa\	p
.	.	8c\J	.	.	.	.	.	.	.	.	.	.	.	.	.	.
!	!	!	!	!	!	!	!	!	!	!	!	!	!	!	!LO:LB:g=original	!
=18	=18	=18	=18	=18	=18	=18	=18	=18	=18	=18	=18	=18	=18	=18	=18	=18
*	*	*tremolo	*	*	*	*	*	*	*	*	*	*	*	*	*	*
!	!	!	!	!	!LO:DY:b:Bi:t=for	!	!LO:DY:b:Bi:t=f&colon;	!	!	!	!LO:DY:b:Bi:t=for	!	!	!	!	!
2E\	f	8c\L	.	2g/	f	2b-\	f	2c/	f	2g\	f	2.ryy	2gg\	f	2bb-\	f
.	.	8c\	.	.	.	.	.	.	.	.	.	.	.	.	.	.
.	.	8c\	.	.	.	.	.	.	.	.	.	.	.	.	.	.
.	.	8c\	.	.	.	.	.	.	.	.	.	.	.	.	.	.
4F\	p	8c\	.	4f/	p	4a/	p	4f\	p	4a\	p	.	4ff\	p	4aa\	p
.	.	8c\J	.	.	.	.	.	.	.	.	.	.	.	.	.	.
!	!	!	!	!	!	!	!	!LO:LB:g=original	!	!	!	!	!	!	!	!
=19	=19	=19	=19	=19	=19	=19	=19	=19	=19	=19	=19	=19	=19	=19	=19	=19
4r	.	8c\L	.	4e|/	.	4gg\	.	4r	.	4r	.	2.ryy	4r	.	4r	.
.	.	8c\	.	.	.	.	.	.	.	.	.	.	.	.	.	.
!	!	!	!	!	!	!	!	!	!LO:DY:b:Bi:t=p&colon;	!	!	!	!	!	!	!
4E\	p	8c\	.	4g/	.	4b-|/	.	4g\	p	4b-\	.	.	4gg\	p	4bb-\	.
.	.	8c\	.	.	.	.	.	.	.	.	.	.	.	.	.	.
4F\	.	8c\	.	4f/	.	4a|/	.	4f\	.	4a\	.	.	4ff\	.	4aa\	.
.	.	8c\J	.	.	.	.	.	.	.	.	.	.	.	.	.	.
*	*	*Xtremolo	*	*	*	*	*	*	*	*	*	*	*	*	*	*
!	!	!	!	!	!	!	!	!	!	!LO:LB:g=original	!	!	!	!	!	!
=20	=20	=20	=20	=20	=20	=20	=20	=20	=20	=20	=20	=20	=20	=20	=20	=20
!LO:TX:t=P:problem=mixed beam	!	!	!	!	!	!	!	!	!	!	!	!	!	!	!	!
8c\L	.	4c\	.	4f/	.	4at/	.	4f\	.	4a\	.	2.ryy	4ff\	.	4aa\	.
8C/	.	.	.	.	.	.	.	.	.	.	.	.	.	.	.	.
8c\	.	4c\	.	4e/	.	4g/	.	4c/	.	4g\	.	.	4ee\	.	4gg\	.
8B-X\	.	.	.	.	.	.	.	.	.	.	.	.	.	.	.	.
8A\	.	4r	.	4r	.	4r	.	4r	.	4r	.	.	4r	.	4r	.
8G\J	.	.	.	.	.	.	.	.	.	.	.	.	.	.	.	.
=21	=21	=21	=21	=21	=21	=21	=21	=21	=21	=21	=21	=21	=21	=21	=21	=21
*	*	*	*	*	*	*	*	*	*	*	*	*	*	*	*	*
!	!LO:DY:b:Bi:t=fortiſs	!	!LO:DY:b:Bi:t=fortiſs	!	!LO:DY:b:Bi:t=fortiſsimo	!	!LO:DY:b:Bi:t=fortiſ&colon;	!	!LO:DY:b:Bi:t=fortiſ&colon;	!	!LO:DY:b:Bi:t=fortiſ&colon;	!	!	!LO:DY:b:Bi:t=for&colon;	!	!LO:DY:b:Bi:t=fortiſ
8F\L	ff	8a\L	ff	2f/	ff	2f/	ff	2.F/	ff	2.f\	ff	2.ryy	2.a/	f	2ff\	ff
8F\	.	8a\	.	.	.	.	.	.	.	.	.	.	.	.	.	.
8F\	.	8a\	.	.	.	.	.	.	.	.	.	.	.	.	.	.
8F\	.	8a\	.	.	.	.	.	.	.	.	.	.	.	.	.	.
!	!	!	!	!	!	!LO:TX:a:t=t	!	!	!	!	!	!	!	!	!	!
.	.	.	.	8qqg/	.	8qqg/	.	.	.	.	.	.	.	.	8qqgg/	.
8F\	.	8a\	.	8f/L	.	8.f/L	.	.	.	.	.	.	.	.	8ff\L	.
8F\J	.	8a\J	.	16e/L	.	.	.	.	.	.	.	.	.	.	16ee\L	.
.	.	.	.	16f/JJ	.	32e/LL	.	.	.	.	.	.	.	.	16ff\JJ	.
.	.	.	.	.	.	32f/JJJ	.	.	.	.	.	.	.	.	.	.
!	!	!LO:LB:g=original	!	!LO:LB:g=original	!	!LO:LB:g=original	!	!	!	!	!	!	!	!	!	!
=22	=22	=22	=22	=22	=22	=22	=22	=22	=22	=22	=22	=22	=22	=22	=22	=22
*tremolo	*	*tremolo	*	*	*	*	*	*	*	*	*	*	*	*	*	*
8En\L	.	8g\L	.	4cc\	.	4cc\	.	2.c/	.	2.cc\	.	2.ryy	2.g/	.	4ccc\	.
8En\	.	8g\	.	.	.	.	.	.	.	.	.	.	.	.	.	.
.	.	.	.	8qqb-/	.	.	.	.	.	.	.	.	.	.	.	.
8En\	.	8g\	.	4cc\	.	4cc\	.	.	.	.	.	.	.	.	4ccc\	.
8En\	.	8g\	.	.	.	.	.	.	.	.	.	.	.	.	.	.
.	.	.	.	8qqb-/	.	.	.	.	.	.	.	.	.	.	.	.
8En\	.	8g\	.	4cc\	.	4cc\	.	.	.	.	.	.	.	.	4ccc\	.
8En\J	.	8g\J	.	.	.	.	.	.	.	.	.	.	.	.	.	.
=23	=23	=23	=23	=23	=23	=23	=23	=23	=23	=23	=23	=23	=23	=23	=23	=23
*	*	*	*	*	*	*	*	*2\right	*	*	*	*	*	*	*	*
8D\L	.	8f\L	.	2f/	.	2ff\	.	2.g\	.	2.g\	.	2.ryy	2.f/	.	2ff\	.
8D\	.	8f\	.	.	.	.	.	.	.	.	.	.	.	.	.	.
8D\	.	8f\	.	.	.	.	.	.	.	.	.	.	.	.	.	.
8D\	.	8f\	.	.	.	.	.	.	.	.	.	.	.	.	.	.
.	.	.	.	8qqe/	.	8qqee/	.	.	.	.	.	.	.	.	8qqee/	.
8D\	.	8f\	.	8d/L	.	8dd\L	.	.	.	.	.	.	.	.	8dd\L	.
8D\J	.	8f\J	.	16c/L	.	16cc\L	.	.	.	.	.	.	.	.	16cc\L	.
.	.	.	.	16Bn/JJ	.	16bn\JJ	.	.	.	.	.	.	.	.	16bn\JJ	.
!LO:LB:g=original	!	!	!	!	!	!	!	!	!	!	!	!	!	!	!	!
=24	=24	=24	=24	=24	=24	=24	=24	=24	=24	=24	=24	=24	=24	=24	=24	=24
!	!	!	!	!LO:SIC:v:s=8qqBn/	!	!LO:SIC:v:s=8qqbn/	!	!	!	!	!	!	!	!	!	!
.	.	.	.	8qqB-/	.	8qqb-/	.	.	.	.	.	.	.	.	.	.
8C/L	.	8e\L	.	4c/	.	4cc\	.	4c/	.	4cc\	.	2.ryy	4e/	.	4cc\	.
8C/	.	8e\	.	.	.	.	.	.	.	.	.	.	.	.	.	.
8C/	.	8e\	.	8e/L	.	8ee\L	.	4r	.	4r	.	.	4r	.	4r	.
8C/	.	8e\	.	8c/	.	8cc\	.	.	.	.	.	.	.	.	.	.
8C/	.	8e\	.	8g/	.	8gg\	.	4r	.	4r	.	.	4r	.	4r	.
8C/J	.	8e\J	.	8e/J	.	8ee\J	.	.	.	.	.	.	.	.	.	.
=25	=25	=25	=25	=25	=25	=25	=25	=25	=25	=25	=25	=25	=25	=25	=25	=25
8D/L	.	8f\L	.	2f/	.	2ff\	.	2.g\	.	2.g\	.	2.ryy	2.g/	.	2ff\	.
8D/	.	8f\	.	.	.	.	.	.	.	.	.	.	.	.	.	.
8D/	.	8f\	.	.	.	.	.	.	.	.	.	.	.	.	.	.
8D/	.	8f\	.	.	.	.	.	.	.	.	.	.	.	.	.	.
.	.	.	.	8qqe/	.	8qqee/	.	.	.	.	.	.	.	.	8qqee/	.
8D/	.	8f\	.	8d/L	.	8dd\L	.	.	.	.	.	.	.	.	8dd\L	.
8D/J	.	8f\J	.	16c/L	.	16cc\L	.	.	.	.	.	.	.	.	16cc\L	.
!	!	!	!	!LO:SIC:v:s=16Bn/JJ	!	!	!	!	!	!	!	!	!	!	!	!
.	.	.	.	16B-/JJ	.	16bn\JJ	.	.	.	.	.	.	.	.	16bn\JJ	.
=26	=26	=26	=26	=26	=26	=26	=26	=26	=26	=26	=26	=26	=26	=26	=26	=26
!	!	!	!	!LO:SIC:v:s=8qqBn/	!	!	!	!	!	!	!	!	!	!	!LO:SIC:v:s=8qqbn/	!
.	.	.	.	8qqB-/	.	8qqbn/	.	.	.	.	.	.	.	.	8qqb-/	.
8C/L	.	8e\L	.	2.c/	.	2cc\	.	4c/	.	4cc\	.	2.ryy	4g/	.	2cc\	.
8C/	.	8e\	.	.	.	.	.	.	.	.	.	.	.	.	.	.
8C/	.	8e\	.	.	.	.	.	4r	.	4r	.	.	4r	.	.	.
8C/J	.	8e\J	.	.	.	.	.	.	.	.	.	.	.	.	.	.
*Xtremolo	*	*Xtremolo	*	*	*	*	*	*	*	*	*	*	*	*	*	*
8E\L	.	8c\L	.	.	.	4g/	.	4r	.	4r	.	.	4r	.	4r	.
8E\J	.	8c\J	.	.	.	.	.	.	.	.	.	.	.	.	.	.
!	!	!	!	!	!	!	!	!	!	!	!	!	!	!	!LO:LB:g=original	!
=27	=27	=27	=27	=27	=27	=27	=27	=27	=27	=27	=27	=27	=27	=27	=27	=27
*	*	*	*	*tremolo	*	*	*	*	*	*	*	*	*	*	*	*
2.F\	.	2.f\	.	16cc\LL	.	8a/L	.	2.c/	.	2.cc\	.	2.ryy	2.a/	.	2.cc\	.
.	.	.	.	16cc\	.	.	.	.	.	.	.	.	.	.	.	.
.	.	.	.	16cc\	.	16bn/L	.	.	.	.	.	.	.	.	.	.
.	.	.	.	16cc\	.	16cc/JJ	.	.	.	.	.	.	.	.	.	.
.	.	.	.	16cc\	.	16dd\LL	.	.	.	.	.	.	.	.	.	.
.	.	.	.	16cc\	.	16ee\	.	.	.	.	.	.	.	.	.	.
.	.	.	.	16cc\	.	16ff\	.	.	.	.	.	.	.	.	.	.
.	.	.	.	16cc\	.	16gg\JJ	.	.	.	.	.	.	.	.	.	.
.	.	.	.	16cc\	.	8aa\L	.	.	.	.	.	.	.	.	.	.
.	.	.	.	16cc\	.	.	.	.	.	.	.	.	.	.	.	.
.	.	.	.	16cc\	.	8aa\J	.	.	.	.	.	.	.	.	.	.
.	.	.	.	16cc\JJ	.	.	.	.	.	.	.	.	.	.	.	.
=28	=28	=28	=28	=28	=28	=28	=28	=28	=28	=28	=28	=28	=28	=28	=28	=28
2.E\	.	2.e\	.	16cc\LL	.	(8aa\L	.	4c/	.	4cc\	.	2.ryy	2.g/	.	2.cc\	.
.	.	.	.	16cc\	.	.	.	.	.	.	.	.	.	.	.	.
.	.	.	.	16cc\	.	8gg\	.	.	.	.	.	.	.	.	.	.
.	.	.	.	16cc\	.	.	.	.	.	.	.	.	.	.	.	.
.	.	.	.	16cc\	.	8ff\	.	4c/	.	4cc\	.	.	.	.	.	.
.	.	.	.	16cc\	.	.	.	.	.	.	.	.	.	.	.	.
.	.	.	.	16cc\	.	8ee\	.	.	.	.	.	.	.	.	.	.
.	.	.	.	16cc\	.	.	.	.	.	.	.	.	.	.	.	.
.	.	.	.	16cc\	.	8dd\	.	4c/	.	4cc\	.	.	.	.	.	.
.	.	.	.	16cc\	.	.	.	.	.	.	.	.	.	.	.	.
.	.	.	.	16cc\	.	8cc\J)	.	.	.	.	.	.	.	.	.	.
.	.	.	.	16cc\JJ	.	.	.	.	.	.	.	.	.	.	.	.
!	!	!	!	!	!	!LO:LB:g=original	!	!LO:LB:g=original	!	!	!	!	!LO:LB:g=original	!	!	!
=29	=29	=29	=29	=29	=29	=29	=29	=29	=29	=29	=29	=29	=29	=29	=29	=29
!	!	!	!	!	!	!	!	!	!	!	!	!	!LO:N:vis=2	!	!	!
2D/	.	2d\	.	16bn\LL	.	4ff\	.	2.g\	.	2.g\	.	2.ryy	2.g/	.	2.ff\	.
.	.	.	.	16bn\	.	.	.	.	.	.	.	.	.	.	.	.
.	.	.	.	16bn\	.	.	.	.	.	.	.	.	.	.	.	.
.	.	.	.	16bn\	.	.	.	.	.	.	.	.	.	.	.	.
.	.	.	.	16bn\	.	16ddd\LL	.	.	.	.	.	.	.	.	.	.
.	.	.	.	16bn\	.	16ccc\	.	.	.	.	.	.	.	.	.	.
.	.	.	.	16bn\	.	16bbn\	.	.	.	.	.	.	.	.	.	.
.	.	.	.	16bn\JJ	.	16aa\JJ	.	.	.	.	.	.	.	.	.	.
4BBn/	.	4g\	.	16dd\LL	.	16gg\LL	.	.	.	.	.	.	.	.	.	.
.	.	.	.	16dd\	.	16ff\	.	.	.	.	.	.	.	.	.	.
.	.	.	.	16dd\	.	16ee\	.	.	.	.	.	.	.	.	.	.
.	.	.	.	16dd\JJ	.	16dd\JJ	.	.	.	.	.	.	.	.	.	.
=30	=30	=30	=30	=30	=30	=30	=30	=30	=30	=30	=30	=30	=30	=30	=30	=30
2.C/	.	2.c\	.	16cc\LL	.	4ee\	.	4c/	.	4cc\	.	2.ryy	2.g/	.	2.ee\	.
.	.	.	.	16cc\	.	.	.	.	.	.	.	.	.	.	.	.
.	.	.	.	16cc\	.	.	.	.	.	.	.	.	.	.	.	.
.	.	.	.	16cc\	.	.	.	.	.	.	.	.	.	.	.	.
.	.	.	.	16cc\	.	16ccc\LL	.	4r	.	4r	.	.	.	.	.	.
.	.	.	.	16cc\	.	16bbn\	.	.	.	.	.	.	.	.	.	.
.	.	.	.	16cc\	.	16aa\	.	.	.	.	.	.	.	.	.	.
.	.	.	.	16cc\	.	16gg\JJ	.	.	.	.	.	.	.	.	.	.
.	.	.	.	16cc\	.	16ff\LL	.	4r	.	4r	.	.	.	.	.	.
.	.	.	.	16cc\	.	16ee\	.	.	.	.	.	.	.	.	.	.
.	.	.	.	16cc\	.	16dd\	.	.	.	.	.	.	.	.	.	.
.	.	.	.	16cc\JJ	.	16cc\JJ	.	.	.	.	.	.	.	.	.	.
*	*	*	*	*Xtremolo	*	*	*	*	*	*	*	*	*	*	*	*
!	!	!	!	!LO:LB:g=original	!	!	!	!	!	!	!	!	!	!	!	!
=31	=31	=31	=31	=31	=31	=31	=31	=31	=31	=31	=31	=31	=31	=31	=31	=31
!	!	!	!	!	!	!	!	!LO:TX:a:t=2	!	!LO:TX:a:t=2	!	!	!	!	!	!
!	!	!	!	!	!	!	!	!LO:N:vis=0	!	!LO:N:vis=0	!	!	!	!	!	!
4F\	.	4f\	.	16a/LL	.	16dd\LL	.	1.r	.	1.r	.	2.ryy	4a/	.	4dd\	.
.	.	.	.	16a/	.	16a\	.	.	.	.	.	.	.	.	.	.
!	!	!	!	!LO:SIC:v:s=16bn/	!	!LO:SIC:v:s=16bn\	!	!	!	!	!	!	!	!	!	!
.	.	.	.	16b-/	.	16b-\	.	.	.	.	.	.	.	.	.	.
.	.	.	.	16cc#X/JJ	.	16cc#X\JJ	.	.	.	.	.	.	.	.	.	.
4r	.	4r	.	16dd\LL	.	16dd\LL	.	.	.	.	.	.	4r	.	4r	.
.	.	.	.	16cc#X\	.	16cc#\	.	.	.	.	.	.	.	.	.	.
.	.	.	.	16dd\	.	16dd\	.	.	.	.	.	.	.	.	.	.
.	.	.	.	16ee\JJ	.	16ee\JJ	.	.	.	.	.	.	.	.	.	.
4r	.	4r	.	16ff\LL	.	16ff\LL	.	.	.	.	.	.	4r	.	4r	.
.	.	.	.	16ee\	.	16ee\	.	.	.	.	.	.	.	.	.	.
.	.	.	.	16ff\	.	16ff\	.	.	.	.	.	.	.	.	.	.
.	.	.	.	16gg\JJ	.	16gg\JJ	.	.	.	.	.	.	.	.	.	.
=32	=32	=32	=32	=32	=32	=32	=32	=32	=32	=32	=32	=32	=32	=32	=32	=32
!LO:N:vis=2.	!	!	!	!	!	!	!	!	!	!	!	!	!LO:TX:t=1	!	!LO:TX:t=1	!
[y2F\	.	2.a\	.	16aa\LL	.	(16aa\LL	.	.	.	.	.	2.ryy	2.r	.	2.r	.
.	.	.	.	16gg\	.	16gg\)	.	.	.	.	.	.	.	.	.	.
.	.	.	.	16ffn\	.	16ff'\	.	.	.	.	.	.	.	.	.	.
.	.	.	.	16gg\JJ	.	16gg'\JJ	.	.	.	.	.	.	.	.	.	.
.	.	.	.	16aa\LL	.	(16aa\LL	.	.	.	.	.	.	.	.	.	.
.	.	.	.	16gg\	.	16gg\)	.	.	.	.	.	.	.	.	.	.
.	.	.	.	16ff\	.	16ff'\	.	.	.	.	.	.	.	.	.	.
.	.	.	.	16gg\JJ	.	16gg'\JJ	.	.	.	.	.	.	.	.	.	.
8Fyy\]	.	.	.	16ffn\LL	.	16ff\LL	.	.	.	.	.	.	.	.	.	.
.	.	.	.	16ee\	.	16ee\	.	.	.	.	.	.	.	.	.	.
8F#X\	.	.	.	16dd\	.	16dd\	.	.	.	.	.	.	.	.	.	.
.	.	.	.	16cc\JJ	.	16cc\JJ	.	.	.	.	.	.	.	.	.	.
!LO:LB:g=original	!	!LO:LB:g=original	!	!	!	!LO:LB:g=original	!	!	!	!LO:LB:g=original	!	!	!	!	!	!
=33	=33	=33	=33	=33	=33	=33	=33	=33	=33	=33	=33	=33	=33	=33	=33	=33
*	*	*	*	*^	*	*	*	*	*	*	*	*	*	*	*	*
4G\	.	4g\	.	4bn\	4ryy	.	16bn\LL	.	2.g\	.	2.g\	.	2.ryy	2.g/	.	2.dd\	.
.	.	.	.	.	.	.	16gg\	.	.	.	.	.	.	.	.	.	.
.	.	.	.	.	.	.	16ff#X\	.	.	.	.	.	.	.	.	.	.
.	.	.	.	.	.	.	16gg\JJ	.	.	.	.	.	.	.	.	.	.
4r	.	4r	.	4r	4ryy	.	16aa\LL	.	.	.	.	.	.	.	.	.	.
.	.	.	.	.	.	.	16gg\	.	.	.	.	.	.	.	.	.	.
.	.	.	.	.	.	.	16ff#X\	.	.	.	.	.	.	.	.	.	.
.	.	.	.	.	.	.	16gg\JJ	.	.	.	.	.	.	.	.	.	.
4BBn/	.	4g\	.	4dd/	4g\	.	16gg\LL	.	.	.	.	.	.	.	.	.	.
.	.	.	.	.	.	.	16ffn\	.	.	.	.	.	.	.	.	.	.
.	.	.	.	.	.	.	16ee\	.	.	.	.	.	.	.	.	.	.
.	.	.	.	.	.	.	16ff\JJ	.	.	.	.	.	.	.	.	.	.
=34	=34	=34	=34	=34	=34	=34	=34	=34	=34	=34	=34	=34	=34	=34	=34	=34	=34
4C/	.	4g\	.	4ee 4cc/	4g\	.	4ee\	.	4c/	.	4cc\	.	2.ryy	4cc\	.	4ee\	.
4r	.	4r	.	4r	2ryy	.	16ccc\LL	.	4r	.	4r	.	.	4r	.	4r	.
.	.	.	.	.	.	.	16bbn\	.	.	.	.	.	.	.	.	.	.
.	.	.	.	.	.	.	16aa\	.	.	.	.	.	.	.	.	.	.
.	.	.	.	.	.	.	16gg\JJ	.	.	.	.	.	.	.	.	.	.
4c\	.	4g\	.	4cc\	.	.	16ffn\LL	.	4r	.	4r	.	.	4r	.	4r	.
.	.	.	.	.	.	.	16ee\	.	.	.	.	.	.	.	.	.	.
.	.	.	.	.	.	.	16dd\	.	.	.	.	.	.	.	.	.	.
.	.	.	.	.	.	.	16cc\JJ	.	.	.	.	.	.	.	.	.	.
=35	=35	=35	=35	=35	=35	=35	=35	=35	=35	=35	=35	=35	=35	=35	=35	=35	=35
4G\	.	4g\	.	4bn/	4ryy	.	16bn\LL	.	2.g\	.	2.g\	.	2.ryy	2.g/	.	2.dd\	.
.	.	.	.	.	.	.	16gg\	.	.	.	.	.	.	.	.	.	.
.	.	.	.	.	.	.	16ff#X\	.	.	.	.	.	.	.	.	.	.
.	.	.	.	.	.	.	16gg\JJ	.	.	.	.	.	.	.	.	.	.
4r	.	4r	.	4r	4ryy	.	16aa\LL	.	.	.	.	.	.	.	.	.	.
.	.	.	.	.	.	.	16gg\	.	.	.	.	.	.	.	.	.	.
.	.	.	.	.	.	.	16ff#\	.	.	.	.	.	.	.	.	.	.
.	.	.	.	.	.	.	16gg\JJ	.	.	.	.	.	.	.	.	.	.
!LO:SIC:v:s=4BBn/	!	!	!	!	!	!	!	!	!	!	!	!	!	!	!	!	!
4BB-/	.	4g\	.	4dd/	4g\	.	16gg\LL	.	.	.	.	.	.	.	.	.	.
.	.	.	.	.	.	.	16ffn\	.	.	.	.	.	.	.	.	.	.
.	.	.	.	.	.	.	16ee\	.	.	.	.	.	.	.	.	.	.
.	.	.	.	.	.	.	16ff\JJ	.	.	.	.	.	.	.	.	.	.
*	*	*	*	*v	*v	*	*	*	*	*	*	*	*	*	*	*	*
=36	=36	=36	=36	=36	=36	=36	=36	=36	=36	=36	=36	=36	=36	=36	=36	=36
4C/	.	4g\	.	4ee 4cc 4g/	.	4ee\	.	4c/	.	4cc\	.	2.ryy	4cc\	.	4ee\	.
4r	.	4r	.	4r	.	16ccc\LL	.	4r	.	4r	.	.	4r	.	4r	.
.	.	.	.	.	.	16bbn\	.	.	.	.	.	.	.	.	.	.
.	.	.	.	.	.	16aa\	.	.	.	.	.	.	.	.	.	.
.	.	.	.	.	.	16gg\JJ	.	.	.	.	.	.	.	.	.	.
4c\	.	4g\	.	4cc\	.	16ff\LL	.	4r	.	4r	.	.	4r	.	4r	.
.	.	.	.	.	.	16ee\	.	.	.	.	.	.	.	.	.	.
.	.	.	.	.	.	16dd\	.	.	.	.	.	.	.	.	.	.
.	.	.	.	.	.	16cc\JJ	.	.	.	.	.	.	.	.	.	.
!	!	!	!	!LO:LB:g=original	!	!LO:LB:g=original	!	!	!	!	!	!	!	!	!	!
=37	=37	=37	=37	=37	=37	=37	=37	=37	=37	=37	=37	=37	=37	=37	=37	=37
!LO:TX:t=P:problem=mixed beam	!	!LO:TX:t=P:problem=mixed beam	!	!LO:SIC:v:n=1:s=4bn	!	!	!	!	!	!	!	!	!	!	!	!
8G\L	.	8g\L	.	4b- 4d 4G/	.	4gg 4bn 4d/	.	4g\	.	4g\	.	2.ryy	4bn\	.	4gg\	.
8GG/	.	8G/	.	.	.	.	.	.	.	.	.	.	.	.	.	.
!	!	!	!	!LO:SIC:v:n=1:s=4bn	!	!	!	!	!	!	!	!	!	!	!	!
8G\	.	8g\	.	4b- 4d 4G/	.	4g|>/	.	4g\	.	4g\	.	.	4b\	.	4gg\	.
8F\	.	8f\	.	.	.	.	.	.	.	.	.	.	.	.	.	.
8E\	.	8e\	.	4r	.	4r	.	4r	.	4r	.	.	4r	.	4r	.
8D\J	.	8d\J	.	.	.	.	.	.	.	.	.	.	.	.	.	.
!	!	!	!	!	!	!	!	!	!	!	!	!	!	!	!LO:LB:g=original	!
=38	=38	=38	=38	=38	=38	=38	=38	=38	=38	=38	=38	=38	=38	=38	=38	=38
!	!	!	!LO:DY:b:Bi:t=ppia	!	!LO:DY:b:Bi:t=pia&colon;	!	!LO:DY:b:Bi:t=pia dolce	!LO:TX:a:t=8	!	!LO:TX:a:t=8	!	!	!LO:TX:a:t=8	!	!LO:TX:a:t=8	!
!	!	!	!	!	!	!	!	!LO:N:vis=00	!	!LO:N:vis=00	!	!	!LO:N:vis=00	!	!LO:N:vis=00	!
4C/	.	(<2.c/	pp	(8e/L	p	(2.cc\	p	0.r	.	0.r	.	2.ryy	0.r	.	0.r	.
.	.	.	.	8g/	.	.	.	.	.	.	.	.	.	.	.	.
4r	.	.	.	8e/	.	.	.	.	.	.	.	.	.	.	.	.
.	.	.	.	8g/	.	.	.	.	.	.	.	.	.	.	.	.
4r	.	.	.	8e/	.	.	.	.	.	.	.	.	.	.	.	.
.	.	.	.	8g/J)	.	.	.	.	.	.	.	.	.	.	.	.
=39	=39	=39	=39	=39	=39	=39	=39	=39	=39	=39	=39	=39	=39	=39	=39	=39
!	!LO:DY:b:Bi:t=pia	!	!	!	!	!	!	!	!	!	!	!	!	!	!	!
4G\	p	2.Bn/	.	(8f/L	.	2.bn\	.	.	.	.	.	2.ryy	.	.	.	.
.	.	.	.	8g/	.	.	.	.	.	.	.	.	.	.	.	.
4r	.	.	.	8f/	.	.	.	.	.	.	.	.	.	.	.	.
.	.	.	.	8g/	.	.	.	.	.	.	.	.	.	.	.	.
4r	.	.	.	8f/	.	.	.	.	.	.	.	.	.	.	.	.
.	.	.	.	8g/J)	.	.	.	.	.	.	.	.	.	.	.	.
=40	=40	=40	=40	=40	=40	=40	=40	=40	=40	=40	=40	=40	=40	=40	=40	=40
4GG/	.	2.f\	.	(8d/L	.	2.ff\	.	.	.	.	.	2.ryy	.	.	.	.
.	.	.	.	8g/	.	.	.	.	.	.	.	.	.	.	.	.
4r	.	.	.	8d/	.	.	.	.	.	.	.	.	.	.	.	.
.	.	.	.	8g/	.	.	.	.	.	.	.	.	.	.	.	.
4r	.	.	.	8d/	.	.	.	.	.	.	.	.	.	.	.	.
.	.	.	.	8g/J)	.	.	.	.	.	.	.	.	.	.	.	.
!LO:LB;g=original	!	!	!	!	!	!	!	!	!	!	!	!	!	!	!	!
=41	=41	=41	=41	=41	=41	=41	=41	=41	=41	=41	=41	=41	=41	=41	=41	=41
4C/	.	2.e\)	.	(8c/L	.	2.ee\)	.	.	.	.	.	2.ryy	.	.	.	.
.	.	.	.	8g/	.	.	.	.	.	.	.	.	.	.	.	.
4r	.	.	.	8c/	.	.	.	.	.	.	.	.	.	.	.	.
.	.	.	.	8g/	.	.	.	.	.	.	.	.	.	.	.	.
4r	.	.	.	8c/	.	.	.	.	.	.	.	.	.	.	.	.
.	.	.	.	8g/J)	.	.	.	.	.	.	.	.	.	.	.	.
=42	=42	=42	=42	=42	=42	=42	=42	=42	=42	=42	=42	=42	=42	=42	=42	=42
!LO:TX:a:t=2	!	!	!	!	!	!	!	!	!	!	!	!	!	!	!	!
!LO:N:vis=0	!	!	!	!	!	!	!	!LO:N:vis=00	!	!LO:N:vis=00	!	!	!LO:N:vis=00	!	!LO:N:vis=00	!
1.r	.	4a\	.	(8f/L	.	4aa\	.	0.r	.	0.r	.	2.ryy	0.r	.	0.r	.
.	.	.	.	8a/	.	.	.	.	.	.	.	.	.	.	.	.
.	.	4a\	.	8f/	.	4aa\	.	.	.	.	.	.	.	.	.	.
.	.	.	.	8a/	.	.	.	.	.	.	.	.	.	.	.	.
.	.	4a\	.	8f/	.	4aa\	.	.	.	.	.	.	.	.	.	.
.	.	.	.	8a/J)	.	.	.	.	.	.	.	.	.	.	.	.
=43	=43	=43	=43	=43	=43	=43	=43	=43	=43	=43	=43	=43	=43	=43	=43	=43
.	.	4.g\	.	(8e/L	.	4.gg\	.	.	.	.	.	2.ryy	.	.	.	.
.	.	.	.	8g/	.	.	.	.	.	.	.	.	.	.	.	.
.	.	.	.	8c/	.	.	.	.	.	.	.	.	.	.	.	.
.	.	(16a\LL	.	8g/	.	(16aa\LL	.	.	.	.	.	.	.	.	.	.
.	.	16g\JJ)	.	.	.	16gg\JJ)	.	.	.	.	.	.	.	.	.	.
.	.	4cc\	.	8e/	.	4ccc\	.	.	.	.	.	.	.	.	.	.
.	.	.	.	8g/J)	.	.	.	.	.	.	.	.	.	.	.	.
!	!	!LO:LB:g=original	!	!	!	!	!	!	!	!	!	!	!	!	!	!
=44	=44	=44	=44	=44	=44	=44	=44	=44	=44	=44	=44	=44	=44	=44	=44	=44
!	!	!	!	!LO:SIC:v:s=8Bn/L	!	!	!	!	!	!	!	!	!	!	!	!
4r	.	4dd\	.	8B-/L	.	4ddd\	.	.	.	.	.	2.ryy	.	.	.	.
.	.	.	.	8f/	.	.	.	.	.	.	.	.	.	.	.	.
4BBn/	.	4f\	.	(8d/	.	4ff\	.	.	.	.	.	.	.	.	.	.
.	.	.	.	8g/	.	.	.	.	.	.	.	.	.	.	.	.
4C/	.	4e\	.	8c/)	.	4ee\	.	.	.	.	.	.	.	.	.	.
.	.	.	.	8g/J	.	.	.	.	.	.	.	.	.	.	.	.
=45	=45	=45	=45	=45	=45	=45	=45	=45	=45	=45	=45	=45	=45	=45	=45	=45
4G\	.	(8e/L	.	4G/	.	(8ee\L	.	.	.	.	.	2.ryy	.	.	.	.
.	.	8d/	.	.	.	8dd\	.	.	.	.	.	.	.	.	.	.
4r	.	8c/	.	4r	.	8cc\	.	.	.	.	.	.	.	.	.	.
!	!	!LO:SIC:v:s=8Bn/	!	!	!	!LO:SIC:v:s=8bn\	!	!	!	!	!	!	!	!	!	!
.	.	8B-/	.	.	.	8b-\	.	.	.	.	.	.	.	.	.	.
4r	.	8A/	.	4r	.	8a\	.	.	.	.	.	.	.	.	.	.
.	.	8G/J)	.	.	.	8g\J)	.	.	.	.	.	.	.	.	.	.
!	!	!	!	!LO:LB:g=original	!	!	!	!	!	!	!	!	!	!	!	!
=46	=46	=46	=46	=46	=46	=46	=46	=46	=46	=46	=46	=46	=46	=46	=46	=46
!LO:TX:a:t=4	!	!	!	!	!	!	!	!	!LO:DY:b:Bi:t=pia	!	!LO:DY:a	!	!	!LO:DY:b:Bi:t=pia	!	!LO:DY:b:Bi:t=dolce p&colon;
!LO:N:vis=00	!	!	!	!	!	!	!	!	!	!	!	!	!	!	!	!
0.r	.	4c\	.	(8e/L	pp	(2.c/	.	4cc\	p	4cc\	p	2.ryy	(2.e/	p	(2.cc\	p
.	.	.	.	8g/	.	.	.	.	.	.	.	.	.	.	.	.
.	.	4r	.	8e/	.	.	.	4r	.	4r	.	.	.	.	.	.
.	.	.	.	8g/	.	.	.	.	.	.	.	.	.	.	.	.
.	.	4r	.	8e/	.	.	.	4r	.	4r	.	.	.	.	.	.
.	.	.	.	8g/J)	.	.	.	.	.	.	.	.	.	.	.	.
=47	=47	=47	=47	=47	=47	=47	=47	=47	=47	=47	=47	=47	=47	=47	=47	=47
!	!	!	!	!	!	!LO:SIC:v:s=2.Bn/)	!	!	!	!	!	!	!	!	!	!
.	.	4G/	.	(8f/L	.	2.B-/)	.	4r	.	4r	.	2.ryy	2.d/)	.	2.bn\	.
.	.	.	.	8g/	.	.	.	.	.	.	.	.	.	.	.	.
.	.	4r	.	8f/	.	.	.	4g\	.	4g\	.	.	.	.	.	.
.	.	.	.	8g/	.	.	.	.	.	.	.	.	.	.	.	.
.	.	4r	.	8f/	.	.	.	4g\	.	4g\	.	.	.	.	.	.
.	.	.	.	8g/J)	.	.	.	.	.	.	.	.	.	.	.	.
!	!	!	!	!	!	!LO:LB:g=original	!	!LO:LB:g=original	!	!	!	!	!LO:LB:g=original	!	!	!
=48	=48	=48	=48	=48	=48	=48	=48	=48	=48	=48	=48	=48	=48	=48	=48	=48
.	.	4g\	.	(8d/L	.	(2.f/	.	2.g\	.	2.g\	.	2.ryy	(2.dd\	.	2.ff\	.
.	.	.	.	8g/	.	.	.	.	.	.	.	.	.	.	.	.
.	.	4r	.	8d/	.	.	.	.	.	.	.	.	.	.	.	.
.	.	.	.	8g/	.	.	.	.	.	.	.	.	.	.	.	.
.	.	4r	.	8d/	.	.	.	.	.	.	.	.	.	.	.	.
.	.	.	.	8g/J)	.	.	.	.	.	.	.	.	.	.	.	.
=49	=49	=49	=49	=49	=49	=49	=49	=49	=49	=49	=49	=49	=49	=49	=49	=49
.	.	4c\	.	(8c/L	.	2.e/)	.	4r	.	4r	.	2.ryy	2.cc\)	.	2.ee\)	.
.	.	.	.	8g/	.	.	.	.	.	.	.	.	.	.	.	.
.	.	4r	.	8c/	.	.	.	4c/	.	4cc\	.	.	.	.	.	.
.	.	.	.	8g/	.	.	.	.	.	.	.	.	.	.	.	.
.	.	4r	.	8c/	.	.	.	4c/	.	4cc\	.	.	.	.	.	.
.	.	.	.	8g/J)	.	.	.	.	.	.	.	.	.	.	.	.
=50	=50	=50	=50	=50	=50	=50	=50	=50	=50	=50	=50	=50	=50	=50	=50	=50
!	!	!LO:TX:a:t=2	!	!	!	!	!	!	!	!	!	!	!	!	!	!
!	!	!LO:N:vis=0	!	!	!	!	!	!	!	!	!	!	!	!	!	!
4C/	.	1.r	.	(8e/L	.	(8g/L	.	4c/	.	4cc\	.	2.ryy	(8ee\L	.	(8gg\L	.
.	.	.	.	8f/	.	8a/	.	.	.	.	.	.	8ff\	.	8aa\	.
4r	.	.	.	8e/	.	8g/	.	4r	.	4r	.	.	8ee\	.	8gg\	.
.	.	.	.	8f/	.	8a/	.	.	.	.	.	.	8ff\	.	8aa\	.
4r	.	.	.	8e/	.	8g/	.	4r	.	4r	.	.	8ee\	.	8gg\	.
.	.	.	.	8f/J)	.	8a/J)	.	.	.	.	.	.	8ff\J)	.	8aa\J)	.
!	!	!	!	!	!	!	!	!	!	!LO:LB:g=original	!	!	!	!	!	!
=51	=51	=51	=51	=51	=51	=51	=51	=51	=51	=51	=51	=51	=51	=51	=51	=51
!LO:TX:a:t=1	!	!	!	!	!	!	!	!LO:TX:a:t=1	!	!LO:TX:a:t=1	!	!	!	!	!	!
2.r	.	.	.	(8e/L	.	(8g/L	.	2.r	.	2.r	.	2.ryy	(8ee\L	.	8gg|\L	.
.	.	.	.	8f/	.	8a/)	.	.	.	.	.	.	8ff\)	.	8aa|\	.
.	.	.	.	8e/	.	8g'/	.	.	.	.	.	.	8ee'\	.	8gg|\	.
.	.	.	.	8f/	.	8a'/	.	.	.	.	.	.	8ff'\	.	8aa|\	.
.	.	.	.	8d/	.	8bn'/	.	.	.	.	.	.	8dd'\	.	8bbn\	.
.	.	.	.	8e/J)	.	8cc'/J	.	.	.	.	.	.	8ee'\J	.	8ccc\J	.
=52	=52	=52	=52	=52	=52	=52	=52	=52	=52	=52	=52	=52	=52	=52	=52	=52
!	!	!	!	!	!	!LO:SIC:v:s=8qqbn/	!	!	!	!	!	!	!	!	!LO:SIC:v:s=8qqbbn/	!
.	.	.	.	8qqg/	.	8qqb-/	.	.	.	.	.	.	8qqgg/	.	8qqbb-/	.
4F\	p	4f\	.	8f/L	.	8a/L	.	4r	.	4r	.	2.ryy	8ff\L	.	8aa\L	.
.	.	.	.	16e/L	.	16g/L	.	.	.	.	.	.	16ee\L	.	16gg\L	.
.	.	.	.	16d/JJ	.	16f/JJ	.	.	.	.	.	.	16dd\JJ	.	16ff\JJ	.
4G\	.	4g\	.	4c/	.	4e/	.	2g\	.	2g\	.	.	4cc\	.	4ee\	.
!	!	!	!	!LO:TX:a:t=t	!	!LO:TX:a:t=t	!	!	!	!	!	!	!LO:TX:t=t	!	!	!
4GG/	.	4g\	.	4Bn/	.	4d/	.	.	.	.	.	.	4bn\	.	4ddT\	.
=53	=53	=53	=53	=53	=53	=53	=53	=53	=53	=53	=53	=53	=53	=53	=53	=53
!LO:TX:t=P:problem=mixed beam	!LO:HP:t=cresc	!	!LO:HP:t=crescendo	!	!	!	!LO:HP:t=crescendo	!	!LO:HP:t=crescendo	!	!LO:HP:t=crescendo	!	!	!	!	!
8C/L	<	(2.c\	<	4c/	.	4c/	<	[>2.c/	<	[2.cc\	<	2.ryy	4cc\	.	4cc\	.
8c\	.	.	.	.	.	.	.	.	.	.	.	.	.	.	.	.
!	!	!	!	!	!LO:HP:t=crescendo	!	!	!	!	!	!	!	!	!	!	!
8c\	.	.	.	4e/	<	4cc\	.	.	.	.	.	.	4r	.	4r	.
8c\	.	.	.	.	.	.	.	.	.	.	.	.	.	.	.	.
8c\	.	.	.	4e/	.	4cc\	.	.	.	.	.	.	4r	.	4r	.
8c\J	.	.	.	.	.	.	.	.	.	.	.	.	.	.	.	.
=54	=54	=54	=54	=54	=54	=54	=54	=54	=54	=54	=54	=54	=54	=54	=54	=54
*tremolo	*	*	*	*	*	*	*	*	*	*	*	*	*	*	*	*
!	!	!	!	!	!	!	!	!	!	!	!	!	!LO:TX:a:t=5	!	!LO:TX:a:t=5	!
.	.	.	.	.	.	8qqdd/	.	.	.	.	.	.	.	.	.	.
!	!	!	!	!	!	!	!	!	!	!	!	!	!LO:N:vis=00	!	!LO:N:vis=00	!
8c\L	.	2.d\	.	2.f/	.	8cc\L	.	2.c/_	.	2.cc\]	.	2.ryy	0.r	.	0.r	.
8c\	.	.	.	.	.	8bn\J	.	.	.	.	.	.	.	.	.	.
8c\	.	.	.	.	.	2b\	.	.	.	.	.	.	.	.	.	.
8c\	.	.	.	.	.	.	.	.	.	.	.	.	.	.	.	.
8c\	.	.	.	.	.	.	.	.	.	.	.	.	.	.	.	.
8c\J	.	.	.	.	.	.	.	.	.	.	.	.	.	.	.	.
!LO:LB:g=original	!	!	!	!LO:LB:g=original	!	!	!	!	!	!	!	!	!	!	!	!
=55	=55	=55	=55	=55	=55	=55	=55	=55	=55	=55	=55	=55	=55	=55	=55	=55
8c\L	.	2.e\	.	4r	.	4r	.	2.c/_	.	[2.cc\	.	2.ryy	.	.	.	.
8c\	.	.	.	.	.	.	.	.	.	.	.	.	.	.	.	.
8c\	.	.	.	4g/	.	4b-X\	.	.	.	.	.	.	.	.	.	.
8c\	.	.	.	.	.	.	.	.	.	.	.	.	.	.	.	.
8c\	.	.	.	4g/	.	4b-\	.	.	.	.	.	.	.	.	.	.
8c\J	.	.	.	.	.	.	.	.	.	.	.	.	.	.	.	.
=56	=56	=56	=56	=56	=56	=56	=56	=56	=56	=56	=56	=56	=56	=56	=56	=56
.	.	.	.	.	.	8qqcc/	.	.	.	.	.	.	.	.	.	.
8c\L	.	2.f\)	.	8g/L	.	8b-\L	.	2.c/]	.	2.cc\_<	.	2.ryy	.	.	.	.
8c\	.	.	.	8f/J	.	8a\J	.	.	.	.	.	.	.	.	.	.
8c\	.	.	.	2f/	.	2a/	.	.	.	.	.	.	.	.	.	.
8c\	.	.	.	.	.	.	.	.	.	.	.	.	.	.	.	.
8c\	.	.	.	.	.	.	.	.	.	.	.	.	.	.	.	.
8c\J	.	.	.	.	.	.	.	.	.	.	.	.	.	.	.	.
!	!	!LO:LB:g=original	!	!	!	!LO:LB:g=original	!	!	!	!	!	!	!	!	!	!
=57	=57	=57	=57	=57	=57	=57	=57	=57	=57	=57	=57	=57	=57	=57	=57	=57
8c\L	.	2.f\	.	4r	.	4r	.	2.c/	.	2.cc\]	.	2.ryy	.	.	.	.
8c\	.	.	.	.	.	.	.	.	.	.	.	.	.	.	.	.
8c\	.	.	.	4f/	.	4a-X/	.	.	.	.	.	.	.	.	.	.
8c\	.	.	.	.	.	.	.	.	.	.	.	.	.	.	.	.
8c\	.	.	.	4f/	.	4a-/	.	.	.	.	.	.	.	.	.	.
8c\J	.	.	.	.	.	.	.	.	.	.	.	.	.	.	.	.
*Xtremolo	*	*	*	*	*	*	*	*	*	*	*	*	*	*	*	*
=58	=58	=58	=58	=58	=58	=58	=58	=58	=58	=58	=58	=58	=58	=58	=58	=58
!	!	!	!	!	!	!LO:SIC:v:s=4.a-/	!	!LO:TX:a:t=1	!	!LO:TX:a:t=1	!	!	!	!	!	!
8Bn\L	.	2.Bn/	.	4.f/	.	4.a/	.	2.r	.	2.r	.	2.ryy	2.r	.	2.r	.
8B\	.	.	.	.	.	.	.	.	.	.	.	.	.	.	.	.
8B\	.	.	.	.	.	.	.	.	.	.	.	.	.	.	.	.
8B\	.	.	.	8e/	.	8g/	.	.	.	.	.	.	.	.	.	.
8B\	.	.	.	4d/	.	4f/	.	.	.	.	.	.	.	.	.	.
8B\J	.	.	.	.	.	.	.	.	.	.	.	.	.	.	.	.
!	!	!	!	!	!	!	!	!	!	!	!	!	!	!	!LO:LB:g=original	!
=59	=59	=59	=59	=59	=59	=59	=59	=59	=59	=59	=59	=59	=59	=59	=59	=59
!LO:TX:t=P:problem=mixed beam	!LO:DY:b:Bi:t=il for	!	!LO:DY:b:Bi:t=il for	!	!	!	!	!	!LO:DY:a:Bi:t=rinfor	!	!LO:DY:b:Bi:t=rinfor	!	!	!	!	!
8c\L	f	2.c\	f	4c/	.	4e/	.	2.C/	rfz	[2.c/	rfz	2.ryy	4r	.	4r	.
8C/	.	.	.	.	.	.	.	.	.	.	.	.	.	.	.	.
!	!	!	!	!	!	!	!LO:DY:b:t=il f	!	!	!	!	!	!	!LO:DY:b:Bi:t=rinfor	!	!LO:DY:b:Bi:t=rinfor
8C/	.	.	.	4ee\	.	4ccc\	f	.	.	.	.	.	4e/	rfz	4cc\	rfz
8C/	.	.	.	.	.	.	.	.	.	.	.	.	.	.	.	.
!	!	!	!	!	!LO:DY:b:Bi:t=rinfor	!	!	!	!	!	!	!	!	!	!	!
8C/	.	.	.	4ee\	rfz	4ccc\	.	.	.	.	.	.	4e/	.	4cc\	.
8C/J	.	.	.	.	.	.	.	.	.	.	.	.	.	.	.	.
!	!	!	!	!	!	!	!	!LO:LB:g=original	!	!	!	!	!	!	!	!
=60	=60	=60	=60	=60	=60	=60	=60	=60	=60	=60	=60	=60	=60	=60	=60	=60
*tremolo	*	*	*	*	*	*	*	*	*	*	*	*	*	*	*	*
.	.	.	.	.	.	8qqddd/	.	.	.	.	.	.	.	.	8qqdd/	.
8C/L	.	2.d\	.	2.ff\	.	8ccc\L	.	[2.C/	.	2.c/_	.	2.ryy	2.f/	.	8cc\L	.
8C/	.	.	.	.	.	8bbn\J	.	.	.	.	.	.	.	.	8bn\J	.
8C/	.	.	.	.	.	2bb\	.	.	.	.	.	.	.	.	2b\	.
8C/	.	.	.	.	.	.	.	.	.	.	.	.	.	.	.	.
8C/	.	.	.	.	.	.	.	.	.	.	.	.	.	.	.	.
8C/J	.	.	.	.	.	.	.	.	.	.	.	.	.	.	.	.
=61	=61	=61	=61	=61	=61	=61	=61	=61	=61	=61	=61	=61	=61	=61	=61	=61
8C/L	.	2.e\	.	4r	.	4r	.	2.C/_	.	2.c/_	.	2.ryy	4r	.	4r	.
8C/	.	.	.	.	.	.	.	.	.	.	.	.	.	.	.	.
8C/	.	.	.	4gg\	.	4bb-X\	.	.	.	.	.	.	4g/	.	4b-X/	.
8C/	.	.	.	.	.	.	.	.	.	.	.	.	.	.	.	.
8C/	.	.	.	4gg\	.	4bb-\	.	.	.	.	.	.	4g/	.	4b-/	.
8C/J	.	.	.	.	.	.	.	.	.	.	.	.	.	.	.	.
=62	=62	=62	=62	=62	=62	=62	=62	=62	=62	=62	=62	=62	=62	=62	=62	=62
.	.	.	.	8qqaa/	.	8qqccc/	.	.	.	.	.	.	8qqa/	.	8qqcc/	.
8C/L	.	2.f\	.	8gg\L	.	8bb-\L	.	2.C/_	.	2.c/]	.	2.ryy	8g/L	.	8b-\L	.
8C/	.	.	.	8ff\J	.	8aa\J	.	.	.	.	.	.	8f/J	.	8a\J	.
8C/	.	.	.	2ff\	.	2aa\	.	.	.	.	.	.	2f/	.	2a/	.
8C/	.	.	.	.	.	.	.	.	.	.	.	.	.	.	.	.
8C/	.	.	.	.	.	.	.	.	.	.	.	.	.	.	.	.
8C/J	.	.	.	.	.	.	.	.	.	.	.	.	.	.	.	.
!	!	!	!	!	!	!	!	!	!	!	!	!	!LO:LB:g=original	!	!	!
=63	=63	=63	=63	=63	=63	=63	=63	=63	=63	=63	=63	=63	=63	=63	=63	=63
*	*	*tremolo	*	*	*	*	*	*	*	*	*	*	*	*	*	*
8C/L	.	8c\L	.	4r	.	4r	.	2.C/]	.	2.c/	.	2.ryy	4r	.	4r	.
8C/	.	8c\	.	.	.	.	.	.	.	.	.	.	.	.	.	.
8C/	.	8c\	.	4ff\	.	4aa-X\	.	.	.	.	.	.	4f/	.	(<4a-X/	.
8C/	.	8c\	.	.	.	.	.	.	.	.	.	.	.	.	.	.
8C/	.	8c\	.	4ff\	.	4aa-\	.	.	.	.	.	.	4ff\	.	4aa-X\)	.
8C/J	.	8c\J	.	.	.	.	.	.	.	.	.	.	.	.	.	.
=64	=64	=64	=64	=64	=64	=64	=64	=64	=64	=64	=64	=64	=64	=64	=64	=64
!	!	!	!	!	!	!LO:SIC:v:s=4.aa-\	!	!LO:TX:a:t=1	!	!LO:TX:a:t=1	!	!	!	!	!	!
8BBn/L	.	8Bn/L	.	4.ff\	.	4.aa\	.	2.r	.	2.r	.	2.ryy	4.ff\	.	4.aa-X\	.
8BBn/	.	8Bn/	.	.	.	.	.	.	.	.	.	.	.	.	.	.
8BBn/	.	8Bn/	.	.	.	.	.	.	.	.	.	.	.	.	.	.
8BBn/	.	8Bn/	.	8ee\	.	8gg\	.	.	.	.	.	.	8ee\	.	8gg\	.
8BBn/	.	8Bn/	.	4dd\	.	4ff\	.	.	.	.	.	.	4dd\	.	4ff\	.
8BBn/J	.	8Bn/J	.	.	.	.	.	.	.	.	.	.	.	.	.	.
*Xtremolo	*	*Xtremolo	*	*	*	*	*	*	*	*	*	*	*	*	*	*
!LO:LB:g=original	!	!	!	!LO:LB:g=original	!	!	!	!	!	!LO:LB:g=original	!	!	!	!	!	!
=65	=65	=65	=65	=65	=65	=65	=65	=65	=65	=65	=65	=65	=65	=65	=65	=65
*	*	*	*	*tremolo	*	*	*	*	*	*	*	*	*	*	*	*
!	!LO:DY:b:Bi:t=fortiſim	!	!LO:DY:b:Bi:t=fortiſ	!	!LO:DY:b:Bi:t=for	!	!	!	!LO:DY:b:Bi:t=forti	!	!LO:DY:b:Bi:t=fortiſ&colon;	!	!	!LO:DY:b:Bi:t=for&colon;	!	!LO:DY:b:Bi:t=fortiſ&colon;
2C/	ff	2c/	ff	16cc\LL	f	16ee\LL	.	4C/	ff	4c/	ff	2.ryy	2.cc\	f	2.ee\	ff
.	.	.	.	16cc\	.	16ee\	.	.	.	.	.	.	.	.	.	.
.	.	.	.	16cc\	.	16ee\	.	.	.	.	.	.	.	.	.	.
.	.	.	.	16cc\	.	16ee\JJ	.	.	.	.	.	.	.	.	.	.
*	*	*	*	*	*	*tremolo	*	*	*	*	*	*	*	*	*	*
.	.	.	.	16cc\	.	16ee\LL	.	4r	.	4r	.	.	.	.	.	.
.	.	.	.	16cc\	.	16ee\	.	.	.	.	.	.	.	.	.	.
.	.	.	.	16cc\	.	16ee\	.	.	.	.	.	.	.	.	.	.
.	.	.	.	16cc\	.	16ee\	.	.	.	.	.	.	.	.	.	.
4BB-X/	.	4B-X/	.	16cc\	.	16ee\	.	4r	.	4r	.	.	.	.	.	.
.	.	.	.	16cc\	.	16ee\	.	.	.	.	.	.	.	.	.	.
.	.	.	.	16cc\	.	16ee\	.	.	.	.	.	.	.	.	.	.
.	.	.	.	16cc\JJ	.	16ee\JJ	.	.	.	.	.	.	.	.	.	.
*	*	*	*	*	*	*Xtremolo	*	*	*	*	*	*	*	*	*	*
!	!	!	!	!	!	!LO:LB:g=original	!	!	!	!	!	!	!	!	!	!
=66	=66	=66	=66	=66	=66	=66	=66	=66	=66	=66	=66	=66	=66	=66	=66	=66
2AA/	.	2A/	.	16cc\L	.	16ff\LL	.	4r	.	4r	.	2.ryy	2.cc\	.	2.ff\	.
.	.	.	.	16cc\	.	16ff\	.	.	.	.	.	.	.	.	.	.
.	.	.	.	16cc\	.	16ff\	.	.	.	.	.	.	.	.	.	.
.	.	.	.	16cc\	.	16ff\JJ	.	.	.	.	.	.	.	.	.	.
.	.	.	.	16cc\	.	16ff\LL	.	4C/	.	4c/	.	.	.	.	.	.
.	.	.	.	16cc\	.	16ff\	.	.	.	.	.	.	.	.	.	.
.	.	.	.	16cc\	.	16ff\	.	.	.	.	.	.	.	.	.	.
.	.	.	.	16cc\	.	16ff\JJ	.	.	.	.	.	.	.	.	.	.
4FF/	.	4f\	.	16cc\	.	16ff\LL	.	4C/	.	4c/	.	.	.	.	.	.
.	.	.	.	16cc\	.	16ff\	.	.	.	.	.	.	.	.	.	.
.	.	.	.	16cc\	.	16ff\	.	.	.	.	.	.	.	.	.	.
.	.	.	.	16cc\J	.	16ff\JJ	.	.	.	.	.	.	.	.	.	.
=67	=67	=67	=67	=67	=67	=67	=67	=67	=67	=67	=67	=67	=67	=67	=67	=67
*	*	*	*	*	*	*tremolo	*	*	*	*	*	*	*	*	*	*
2E\	.	2e\	.	16cc\LL	.	16gg\LL	.	2C/	.	2c/	.	2.ryy	2.cc\	.	2.gg\	.
.	.	.	.	16cc\	.	16gg\	.	.	.	.	.	.	.	.	.	.
.	.	.	.	16cc\	.	16gg\	.	.	.	.	.	.	.	.	.	.
.	.	.	.	16cc\	.	16gg\	.	.	.	.	.	.	.	.	.	.
.	.	.	.	16cc\	.	16gg\	.	.	.	.	.	.	.	.	.	.
.	.	.	.	16cc\	.	16gg\	.	.	.	.	.	.	.	.	.	.
.	.	.	.	16cc\	.	16gg\	.	.	.	.	.	.	.	.	.	.
.	.	.	.	16cc\	.	16gg\	.	.	.	.	.	.	.	.	.	.
4C/	.	4c\	.	16cc\	.	16gg\	.	4r	.	4r	.	.	.	.	.	.
.	.	.	.	16cc\	.	16gg\	.	.	.	.	.	.	.	.	.	.
.	.	.	.	16cc\	.	16gg\	.	.	.	.	.	.	.	.	.	.
.	.	.	.	16cc\JJ	.	16gg\JJ	.	.	.	.	.	.	.	.	.	.
=68	=68	=68	=68	=68	=68	=68	=68	=68	=68	=68	=68	=68	=68	=68	=68	=68
!	!	!	!	!	!	!	!	!LO:TX:a:t=2	!	!LO:TX:a:t=2	!	!	!	!	!	!
!	!	!	!	!	!	!	!	!LO:N:vis=0	!	!LO:N:vis=0	!	!	!	!	!	!
2.F\	.	2.f\	.	16cc\LL	.	16aa\LL	.	1.r	.	1.r	.	2.ryy	2.cc\	.	2.aan\	.
.	.	.	.	16cc\	.	16aa\	.	.	.	.	.	.	.	.	.	.
.	.	.	.	16cc\	.	16aa\	.	.	.	.	.	.	.	.	.	.
.	.	.	.	16cc\	.	16aa\	.	.	.	.	.	.	.	.	.	.
.	.	.	.	16cc\	.	16aa\	.	.	.	.	.	.	.	.	.	.
.	.	.	.	16cc\	.	16aa\	.	.	.	.	.	.	.	.	.	.
.	.	.	.	16cc\	.	16aa\	.	.	.	.	.	.	.	.	.	.
.	.	.	.	16cc\	.	16aa\	.	.	.	.	.	.	.	.	.	.
.	.	.	.	16cc\	.	16aa\	.	.	.	.	.	.	.	.	.	.
.	.	.	.	16cc\	.	16aa\	.	.	.	.	.	.	.	.	.	.
.	.	.	.	16cc\	.	16aa\	.	.	.	.	.	.	.	.	.	.
.	.	.	.	16cc\JJ	.	16aa\JJ	.	.	.	.	.	.	.	.	.	.
!	!	!LO:LB:g=original	!	!	!	!	!	!	!	!	!	!	!	!	!LO:LB:g=original	!
=69	=69	=69	=69	=69	=69	=69	=69	=69	=69	=69	=69	=69	=69	=69	=69	=69
!	!	!LO:TX:a:t=d	!	!	!	!	!	!	!	!	!	!	!	!	!	!
2.D\	.	2.d\	.	16ff\LL	.	16bbn\LL	.	.	.	.	.	2.ryy	2.ff\	.	2.bbn\	.
.	.	.	.	16ff\	.	16bbn\	.	.	.	.	.	.	.	.	.	.
.	.	.	.	16ff\	.	16bbn\	.	.	.	.	.	.	.	.	.	.
.	.	.	.	16ff\	.	16bbn\	.	.	.	.	.	.	.	.	.	.
.	.	.	.	16ff\	.	16bbn\	.	.	.	.	.	.	.	.	.	.
.	.	.	.	16ff\	.	16bbn\	.	.	.	.	.	.	.	.	.	.
.	.	.	.	16ff\	.	16bbn\	.	.	.	.	.	.	.	.	.	.
.	.	.	.	16ff\	.	16bbn\	.	.	.	.	.	.	.	.	.	.
.	.	.	.	16ff\	.	16bbn\	.	.	.	.	.	.	.	.	.	.
.	.	.	.	16ff\	.	16bbn\	.	.	.	.	.	.	.	.	.	.
.	.	.	.	16ff\	.	16bbn\	.	.	.	.	.	.	.	.	.	.
.	.	.	.	16ff\JJ	.	16bbn\JJ	.	.	.	.	.	.	.	.	.	.
=70	=70	=70	=70	=70	=70	=70	=70	=70	=70	=70	=70	=70	=70	=70	=70	=70
!	!	!	!	!	!LO:DY:b:Bi:t=fortiſsimo	!	!	!	!	!	!	!	!	!	!	!
8C\L	.	8c|\L	.	16ee\LL	ff	16ccc\LL	.	2.c/	.	[<2.cc\	.	2.ryy	4ee\	.	4ccc\	.
.	.	.	.	16ee\	.	16ccc\	.	.	.	.	.	.	.	.	.	.
16c\L	.	(16cc\L	.	16ee\	.	16ccc\	.	.	.	.	.	.	.	.	.	.
16d\JJ	.	16dd\JJ)	.	16ee\	.	16ccc\	.	.	.	.	.	.	.	.	.	.
8en\L	.	8ee\L	.	16ee\	.	16ccc\	.	.	.	.	.	.	4r	.	4r	.
.	.	.	.	16ee\	.	16ccc\	.	.	.	.	.	.	.	.	.	.
8d\	.	8dd\	.	16ee\	.	16ccc\	.	.	.	.	.	.	.	.	.	.
.	.	.	.	16ee\	.	16ccc\	.	.	.	.	.	.	.	.	.	.
8c\	.	8cc\	.	16ee\	.	16ccc\	.	.	.	.	.	.	4r	.	4r	.
.	.	.	.	16ee\	.	16ccc\	.	.	.	.	.	.	.	.	.	.
8Bn\J	.	8bn\J	.	16ee\	.	16ccc\	.	.	.	.	.	.	.	.	.	.
.	.	.	.	16ee\JJ	.	16ccc\JJ	.	.	.	.	.	.	.	.	.	.
=71	=71	=71	=71	=71	=71	=71	=71	=71	=71	=71	=71	=71	=71	=71	=71	=71
8A\L	.	8a\L	.	16ee\LL	.	16ccc\LL	.	2.c/	.	2.cc\]	.	2.ryy	4ee\	.	4ccc\	.
.	.	.	.	16ee\	.	16ccc\	.	.	.	.	.	.	.	.	.	.
16A\L	.	16a\L	.	16ee\	.	16ccc\	.	.	.	.	.	.	.	.	.	.
16Bn\JJ	.	16bn\JJ	.	16ee\	.	16ccc\	.	.	.	.	.	.	.	.	.	.
8c\L	.	8cc\L	.	16ee\	.	16ccc\	.	.	.	.	.	.	4r	.	4r	.
.	.	.	.	16ee\	.	16ccc\	.	.	.	.	.	.	.	.	.	.
8B\	.	8b\	.	16ee\	.	16ccc\	.	.	.	.	.	.	.	.	.	.
.	.	.	.	16ee\	.	16ccc\	.	.	.	.	.	.	.	.	.	.
8A\	.	8a\	.	16ee\	.	16ccc\	.	.	.	.	.	.	4r	.	4r	.
.	.	.	.	16ee\	.	16ccc\	.	.	.	.	.	.	.	.	.	.
8G\J	.	8g\J	.	16ee\	.	16ccc\	.	.	.	.	.	.	.	.	.	.
.	.	.	.	16ee\JJ	.	16ccc\JJ	.	.	.	.	.	.	.	.	.	.
=72	=72	=72	=72	=72	=72	=72	=72	=72	=72	=72	=72	=72	=72	=72	=72	=72
4F\	.	4f\	.	16dd\LL	.	16ccc\LL	.	4r	.	4r	.	2.ryy	2.dd\	.	2ccc\	.
.	.	.	.	16dd\	.	16ccc\	.	.	.	.	.	.	.	.	.	.
.	.	.	.	16dd\	.	16ccc\	.	.	.	.	.	.	.	.	.	.
.	.	.	.	16dd\	.	16ccc\	.	.	.	.	.	.	.	.	.	.
4G\	.	4g\	.	16dd\	.	16ccc\	.	4g\	.	4g\	.	.	.	.	.	.
.	.	.	.	16dd\	.	16ccc\	.	.	.	.	.	.	.	.	.	.
.	.	.	.	16dd\	.	16ccc\	.	.	.	.	.	.	.	.	.	.
.	.	.	.	16dd\	.	16ccc\JJ	.	.	.	.	.	.	.	.	.	.
4GG/	.	4G/	.	16dd\	.	16bbn\LL	.	4g\	.	4g\	.	.	.	.	4bbn\	.
.	.	.	.	16dd\	.	16bbn\	.	.	.	.	.	.	.	.	.	.
.	.	.	.	16dd\	.	16bbn\	.	.	.	.	.	.	.	.	.	.
.	.	.	.	16dd\JJ	.	16bbn\JJ	.	.	.	.	.	.	.	.	.	.
!LO:LB:g=original	!	!	!	!	!	!	!	!LO:LB:g=original	!	!	!	!	!	!	!	!
=73	=73	=73	=73	=73	=73	=73	=73	=73	=73	=73	=73	=73	=73	=73	=73	=73
!LO:TX:t=P:problem=mixed beam	!	!	!	!	!	!	!	!	!	!	!	!	!	!	!	!
8C/L	.	8c\L	.	16ee\LL	.	16ccc\LL	.	2.c/	.	[2.cc\	.	2.ryy	4ee\	.	4ccc\	.
.	.	.	.	16ee\	.	16ccc\	.	.	.	.	.	.	.	.	.	.
16c\L	.	16cc\L	.	16ee\	.	16ccc\	.	.	.	.	.	.	.	.	.	.
16d\JJ	.	16dd\JJ	.	16ee\	.	16ccc\	.	.	.	.	.	.	.	.	.	.
8e\L	.	8ee\L	.	16ee\	.	16ccc\	.	.	.	.	.	.	4r	.	4r	.
.	.	.	.	16ee\	.	16ccc\	.	.	.	.	.	.	.	.	.	.
8d\	.	8dd\	.	16ee\	.	16ccc\	.	.	.	.	.	.	.	.	.	.
.	.	.	.	16ee\	.	16ccc\	.	.	.	.	.	.	.	.	.	.
8c\	.	8cc\	.	16ee\	.	16ccc\	.	.	.	.	.	.	4r	.	4r	.
.	.	.	.	16ee\	.	16ccc\	.	.	.	.	.	.	.	.	.	.
!LO:SIC:v:s=8Bn\J	!	!LO:SIC:v:s=8bn\J	!	!	!	!	!	!	!	!	!	!	!	!	!	!
8B-\J	.	8b-\J	.	16ee\	.	16ccc\	.	.	.	.	.	.	.	.	.	.
.	.	.	.	16ee\JJ	.	16ccc\JJ	.	.	.	.	.	.	.	.	.	.
=74	=74	=74	=74	=74	=74	=74	=74	=74	=74	=74	=74	=74	=74	=74	=74	=74
8A|\L	.	8a\L	.	16ee\LL	.	16ccc\LL	.	2.c/	.	2.cc\]	.	2.ryy	4ee\	.	4ccc\	.
.	.	.	.	16ee\	.	16ccc\	.	.	.	.	.	.	.	.	.	.
16A\L	.	16a\L	.	16ee\	.	16ccc\	.	.	.	.	.	.	.	.	.	.
!LO:SIC:v:s=16Bn\JJ	!	!LO:SIC:v:s=16bn\JJ	!	!	!	!	!	!	!	!	!	!	!	!	!	!
16B-\JJ	.	16b-\JJ	.	16ee\	.	16ccc\	.	.	.	.	.	.	.	.	.	.
8c\L	.	8cc\L	.	16ee\	.	16ccc\	.	.	.	.	.	.	4r	.	4r	.
.	.	.	.	16ee\	.	16ccc\	.	.	.	.	.	.	.	.	.	.
8B-\	.	8b-\	.	16ee\	.	16ccc\	.	.	.	.	.	.	.	.	.	.
.	.	.	.	16ee\	.	16ccc\	.	.	.	.	.	.	.	.	.	.
8A\	.	8a\	.	16ee\	.	16ccc\	.	.	.	.	.	.	4r	.	4r	.
.	.	.	.	16ee\	.	16ccc\	.	.	.	.	.	.	.	.	.	.
8G\J	.	8g\J	.	16ee\	.	16ccc\	.	.	.	.	.	.	.	.	.	.
.	.	.	.	16ee\JJ	.	16ccc\JJ	.	.	.	.	.	.	.	.	.	.
=75	=75	=75	=75	=75	=75	=75	=75	=75	=75	=75	=75	=75	=75	=75	=75	=75
4F\	.	4f\	.	16dd\LL	.	16ccc\LL	.	4r	.	4r	.	2.ryy	2.dd\	.	2ccc\	.
.	.	.	.	16dd\	.	16ccc\	.	.	.	.	.	.	.	.	.	.
.	.	.	.	16dd\	.	16ccc\	.	.	.	.	.	.	.	.	.	.
.	.	.	.	16dd\	.	16ccc\	.	.	.	.	.	.	.	.	.	.
4G\	.	4g\	.	16dd\	.	16ccc\	.	4g\	.	4g\	.	.	.	.	.	.
.	.	.	.	16dd\	.	16ccc\	.	.	.	.	.	.	.	.	.	.
.	.	.	.	16dd\	.	16ccc\	.	.	.	.	.	.	.	.	.	.
.	.	.	.	16dd\	.	16ccc\JJ	.	.	.	.	.	.	.	.	.	.
4GG/	.	4G/	.	16dd\	.	16bbn\LL	.	4g\	.	4g\	.	.	.	.	4bbn\	.
.	.	.	.	16dd\	.	16bbn\	.	.	.	.	.	.	.	.	.	.
.	.	.	.	16dd\	.	16bbn\	.	.	.	.	.	.	.	.	.	.
.	.	.	.	16dd\JJ	.	16bbn\JJ	.	.	.	.	.	.	.	.	.	.
*	*	*	*	*Xtremolo	*	*Xtremolo	*	*	*	*	*	*	*	*	*	*
!	!	!LO:LB:g=original	!	!	!	!LO:LB:g=original	!	!	!	!	!	!	!LO:LB:g=original	!	!	!
=76	=76	=76	=76	=76	=76	=76	=76	=76	=76	=76	=76	=76	=76	=76	=76	=76
4C/	.	4c\	.	4ee\	.	4ccc\	.	4c/	.	4cc\	.	2.ryy	4ee\	.	4ccc\	.
4r	.	4r	.	4r	.	16ccc\LL	.	4r	.	4r	.	.	4r	.	4r	.
.	.	.	.	.	.	16bb-\	.	.	.	.	.	.	.	.	.	.
.	.	.	.	.	.	16aa\	.	.	.	.	.	.	.	.	.	.
.	.	.	.	.	.	16gg\JJ	.	.	.	.	.	.	.	.	.	.
4r	.	4r	.	4r	.	16ccc\LL	.	4r	.	4r	.	.	4r	.	4r	.
.	.	.	.	.	.	16bb-\	.	.	.	.	.	.	.	.	.	.
.	.	.	.	.	.	16aa\	.	.	.	.	.	.	.	.	.	.
.	.	.	.	.	.	16gg\JJ	.	.	.	.	.	.	.	.	.	.
!	!	!	!	!LO:LB:g=original	!	!	!	!	!	!LO:LB:g=original	!	!	!	!	!	!
=77	=77	=77	=77	=77	=77	=77	=77	=77	=77	=77	=77	=77	=77	=77	=77	=77
4C/	.	4c\	.	4ee 4g 4c/	.	4ccc\	.	4c/	.	4cc\	.	2.ryy	4ee\	.	4ccc\	.
4r	.	4r	.	4r	.	16ccc\LL	.	4r	.	4r	.	.	4r	.	4r	.
.	.	.	.	.	.	16bb-\	.	.	.	.	.	.	.	.	.	.
.	.	.	.	.	.	16aa\	.	.	.	.	.	.	.	.	.	.
.	.	.	.	.	.	16gg\JJ	.	.	.	.	.	.	.	.	.	.
4r	.	4r	.	4r	.	16ccc\LL	.	4r	.	4r	.	.	4r	.	4r	.
.	.	.	.	.	.	16bb-\	.	.	.	.	.	.	.	.	.	.
.	.	.	.	.	.	16aa\	.	.	.	.	.	.	.	.	.	.
.	.	.	.	.	.	16gg\JJ	.	.	.	.	.	.	.	.	.	.
=78	=78	=78	=78	=78	=78	=78	=78	=78	=78	=78	=78	=78	=78	=78	=78	=78
!LO:TX:t=P:problem=mixed beam	!	!	!	!	!	!	!	!	!	!	!	!	!	!	!	!
8C/L	.	8c\L	.	4ee 4g 4c/	.	4ccc\	.	4r	.	4r	.	2.ryy	4ee\	.	4ccc\	.
16c\L	.	16cc\L	.	.	.	.	.	.	.	.	.	.	.	.	.	.
16d\JJ	.	16dd\JJ	.	.	.	.	.	.	.	.	.	.	.	.	.	.
8e\L	.	8ee\L	.	4ee 4g 4c/	.	4cc 4e 4G/	.	4C/	.	4c/	.	.	4e/	.	4cc\	.
8c\	.	8cc\	.	.	.	.	.	.	.	.	.	.	.	.	.	.
8G\	.	8g\	.	4ee 4g 4c/	.	4cc 4e 4G/	.	4C/	.	4c/	.	.	4e/	.	4cc\	.
8E\J	.	8e\J	.	.	.	.	.	.	.	.	.	.	.	.	.	.
!LO:LB:g=original	!	!	!	!	!	!	!	!	!	!	!	!	!	!	!LO:LB:g=original	!
=79	=79	=79	=79	=79	=79	=79	=79	=79	=79	=79	=79	=79	=79	=79	=79	=79
2.C/	.	2.c\	.	2.ee 2.g 2.c/	.	2.cc 2.e 2.G/	.	2.C/	.	2.c/	.	2.ryy	2.e/	.	2.cc\	.
=80:|!|:	=80:|!|:	=80:|!|:	=80:|!|:	=80:|!|:	=80:|!|:	=80:|!|:	=80:|!|:	=80:|!|:	=80:|!|:	=80:|!|:	=80:|!|:	=80:|!|:	=80:|!|:	=80:|!|:	=80:|!|:	=80:|!|:
!LO:TX:a:t=10	!	!	!LO:DY:b:Bi:t=pia	!	!LO:DY:B:Bi:t=pia	!	!LO:DY:b:Bi:t=pia	!LO:TX:a:t=12	!	!LO:TX:a:t=12	!	!	!LO:TX:a:t=4	!	!LO:TX:a:t=4	!
!LO:N:vis=00	!	!	!	!	!	!	!	!LO:N:vis=00	!	!LO:N:vis=00	!	!	!LO:N:vis=00	!	!LO:N:vis=00	!
0.r	.	8c\L	p	(<2.e/	p	(2.cc|\	p	0.r	.	0.r	.	2.ryy	0.r	.	0.r	.
.	.	8cc\	.	.	.	.	.	.	.	.	.	.	.	.	.	.
.	.	8cc\	.	.	.	.	.	.	.	.	.	.	.	.	.	.
.	.	8cc\	.	.	.	.	.	.	.	.	.	.	.	.	.	.
.	.	8cc\	.	.	.	.	.	.	.	.	.	.	.	.	.	.
.	.	8cc\J	.	.	.	.	.	.	.	.	.	.	.	.	.	.
=81	=81	=81	=81	=81	=81	=81	=81	=81	=81	=81	=81	=81	=81	=81	=81	=81
*	*	*tremolo	*	*	*	*	*	*	*	*	*	*	*	*	*	*
.	.	8cc\L	.	2.a/	.	2.ff\	.	.	.	.	.	2.ryy	.	.	.	.
.	.	8cc\	.	.	.	.	.	.	.	.	.	.	.	.	.	.
.	.	8cc\	.	.	.	.	.	.	.	.	.	.	.	.	.	.
.	.	8cc\	.	.	.	.	.	.	.	.	.	.	.	.	.	.
.	.	8cc\	.	.	.	.	.	.	.	.	.	.	.	.	.	.
.	.	8cc\J	.	.	.	.	.	.	.	.	.	.	.	.	.	.
=82	=82	=82	=82	=82	=82	=82	=82	=82	=82	=82	=82	=82	=82	=82	=82	=82
.	.	8cc\L	.	2.g/	.	2.ee\	.	.	.	.	.	2.ryy	.	.	.	.
.	.	8cc\	.	.	.	.	.	.	.	.	.	.	.	.	.	.
.	.	8cc\	.	.	.	.	.	.	.	.	.	.	.	.	.	.
.	.	8cc\	.	.	.	.	.	.	.	.	.	.	.	.	.	.
.	.	8cc\	.	.	.	.	.	.	.	.	.	.	.	.	.	.
.	.	8cc\J	.	.	.	.	.	.	.	.	.	.	.	.	.	.
=83	=83	=83	=83	=83	=83	=83	=83	=83	=83	=83	=83	=83	=83	=83	=83	=83
.	.	8cc\L	.	2.ff\	.	2.aa\	.	.	.	.	.	2.ryy	.	.	.	.
.	.	8cc\	.	.	.	.	.	.	.	.	.	.	.	.	.	.
.	.	8cc\	.	.	.	.	.	.	.	.	.	.	.	.	.	.
.	.	8cc\	.	.	.	.	.	.	.	.	.	.	.	.	.	.
.	.	8cc\	.	.	.	.	.	.	.	.	.	.	.	.	.	.
.	.	8cc\J	.	.	.	.	.	.	.	.	.	.	.	.	.	.
=84	=84	=84	=84	=84	=84	=84	=84	=84	=84	=84	=84	=84	=84	=84	=84	=84
!LO:N:vis=00	!	!	!	!	!	!	!	!LO:N:vis=00	!	!LO:N:vis=00	!	!	!	!	!	!LO:DY:b:Bi:t=pia
0.r	.	8cc\L	.	4ee\)	.	4gg\)	.	0.r	.	0.r	.	2.ryy	4ee\	.	4gg\	p
.	.	8cc\	.	.	.	.	.	.	.	.	.	.	.	.	.	.
.	.	8cc\	.	8ee\L	.	8.gg\L	.	.	.	.	.	.	8ee\L	.	8gg\L	.
.	.	8cc\	.	8ff\J	.	.	.	.	.	.	.	.	8ff\J	.	8aa\J	.
.	.	.	.	.	.	16aa\Jk	.	.	.	.	.	.	.	.	.	.
.	.	8cc\	.	4ee\	.	4gg\	.	.	.	.	.	.	4ee\	.	4gg\	.
.	.	8cc\J	.	.	.	.	.	.	.	.	.	.	.	.	.	.
*	*	*Xtremolo	*	*	*	*	*	*	*	*	*	*	*	*	*	*
!	!	!	!	!	!	!LO:LB:g=original	!	!	!	!	!	!	!	!	!	!
=85	=85	=85	=85	=85	=85	=85	=85	=85	=85	=85	=85	=85	=85	=85	=85	=85
.	.	4g\	.	4dd\	.	4ff|\	.	.	.	.	.	2.ryy	4dd\	.	4ff\	.
.	.	4cc\	.	4cc\	.	4ee|\	.	.	.	.	.	.	4cc\	.	4ee\	.
.	.	4r	.	4r	.	4r	.	.	.	.	.	.	4r	.	4r	.
!	!	!LO:LB:g=original	!	!	!	!	!	!	!	!	!	!	!	!	!	!
=86	=86	=86	=86	=86	=86	=86	=86	=86	=86	=86	=86	=86	=86	=86	=86	=86
*	*	*tremolo	*	*	*	*	*	*	*	*	*	*	*	*	*	*
!	!	!	!	!	!	!	!LO:HP:a	!	!	!	!	!	!LO:TX:a:t=4	!	!LO:TX:a:t=4	!
!	!	!	!	!	!	!	!	!	!	!	!	!	!LO:N:vis=00	!	!LO:N:vis=00	!
.	.	8cc\L	.	(2.e/	.	2.cc\	<	.	.	.	.	2.ryy	0.r	.	0.r	.
.	.	8cc\	.	.	.	.	.	.	.	.	.	.	.	.	.	.
.	.	8cc\	.	.	.	.	.	.	.	.	.	.	.	.	.	.
.	.	8cc\	.	.	.	.	.	.	.	.	.	.	.	.	.	.
.	.	8cc\	.	.	.	.	.	.	.	.	.	.	.	.	.	.
.	.	8cc\J	.	.	.	.	.	.	.	.	.	.	.	.	.	.
=87	=87	=87	=87	=87	=87	=87	=87	=87	=87	=87	=87	=87	=87	=87	=87	=87
.	.	8cc\L	.	2.a/	.	2.ff\	.	.	.	.	.	2.ryy	.	.	.	.
.	.	8cc\	.	.	.	.	.	.	.	.	.	.	.	.	.	.
.	.	8cc\	.	.	.	.	.	.	.	.	.	.	.	.	.	.
.	.	8cc\	.	.	.	.	.	.	.	.	.	.	.	.	.	.
.	.	8cc\	.	.	.	.	.	.	.	.	.	.	.	.	.	.
.	.	8cc\J	.	.	.	.	.	.	.	.	.	.	.	.	.	.
=88	=88	=88	=88	=88	=88	=88	=88	=88	=88	=88	=88	=88	=88	=88	=88	=88
!LO:N:vis=0	!	!	!	!	!	!	!	!LO:N:vis=00	!	!LO:N:vis=00	!	!	!	!	!	!
1.r	.	8cc\L	.	2.g/)	.	2.ee\	.	0.r	.	0.r	.	2.ryy	.	.	.	.
.	.	8cc\	.	.	.	.	.	.	.	.	.	.	.	.	.	.
.	.	8cc\	.	.	.	.	.	.	.	.	.	.	.	.	.	.
.	.	8cc\	.	.	.	.	.	.	.	.	.	.	.	.	.	.
.	.	8cc\	.	.	.	.	.	.	.	.	.	.	.	.	.	.
.	.	8cc\J	.	.	.	.	.	.	.	.	.	.	.	.	.	.
!	!	!	!	!LO:LB:g=original	!	!	!	!	!	!	!	!	!	!	!	!
=89	=89	=89	=89	=89	=89	=89	=89	=89	=89	=89	=89	=89	=89	=89	=89	=89
.	.	8cc\L	.	2.ff\	.	2.aa\	[[	.	.	.	.	2.ryy	.	.	.	.
.	.	8cc\	.	.	.	.	.	.	.	.	.	.	.	.	.	.
.	.	8cc\	.	.	.	.	.	.	.	.	.	.	.	.	.	.
.	.	8cc\	.	.	.	.	.	.	.	.	.	.	.	.	.	.
.	.	8cc\	.	.	.	.	.	.	.	.	.	.	.	.	.	.
.	.	8cc\J	.	.	.	.	.	.	.	.	.	.	.	.	.	.
=90	=90	=90	=90	=90	=90	=90	=90	=90	=90	=90	=90	=90	=90	=90	=90	=90
4C/	p	8cc\L	.	4ee\	.	4gg\	.	.	.	.	.	2.ryy	4ee\	.	4gg\	.
.	.	8cc\	.	.	.	.	.	.	.	.	.	.	.	.	.	.
4r	.	8cc\	.	8ee\L	.	8.gg\L	.	.	.	.	.	.	(8ee\L	.	8gg\L	.
.	.	8cc\	.	8ff\J	.	.	.	.	.	.	.	.	8ff\J)	.	8aa\J	.
.	.	.	.	.	.	16aa\Jk	.	.	.	.	.	.	.	.	.	.
4r	.	8cc\	.	4ee\	.	4gg\	.	.	.	.	.	.	4ee|\	.	4gg\	.
.	.	8cc\J	.	.	.	.	.	.	.	.	.	.	.	.	.	.
*	*	*Xtremolo	*	*	*	*	*	*	*	*	*	*	*	*	*	*
=91	=91	=91	=91	=91	=91	=91	=91	=91	=91	=91	=91	=91	=91	=91	=91	=91
!	!LO:DY:b:Bi:t=for	!	!LO:DY:b:Bi:t=for	!	!LO:DY:b:Bi:t=for&colon;	!	!LO:DY:b:Bi:t=for	!	!	!	!	!	!	!	!	!LO:DY:b:Bi:t=for
4C#X/	f	4cc#X\	f	4gg\	f	4bb-X\	f	.	.	.	.	2.ryy	4gg|\	.	4bb-X|\	f
4D/	.	4dd\	.	4ff\	.	4aa\	.	.	.	.	.	.	4ff|\	.	4aa|\	.
4r	.	4r	.	4r	.	4r	.	.	.	.	.	.	4r	.	4r	.
=92	=92	=92	=92	=92	=92	=92	=92	=92	=92	=92	=92	=92	=92	=92	=92	=92
!	!LO:DY:b:Bi:t=pia	!	!LO:DY:b:Bi:t=pia	!	!	!	!	!	!	!LO:TX:t=P:problem=t. 92-95 – 2.dd poprawione na 2.aa	!	!	!	!LO:DY:b:Bi:t=p&colon;	!	!LO:DY:b:Bi:t=pp&colon;
!	!	!	!	!	!	!	!	!	!	!LO:TX:t=a	!	!	!	!	!	!
(2.B-X\	p	(2.b-X\	p	4r	.	4r	.	[2.d/	pp	[2.dd\	pp	2.ryy	[2.dd\	p	[2.ff\	pp
!	!	!	!	!	!LO:DY:b:Bi:t=p&colon;	!	!LO:DY:b:Bi:t=pia	!	!	!	!	!	!	!	!	!
.	.	.	.	4dd\	p	4ff\	p	.	.	.	.	.	.	.	.	.
.	.	.	.	4dd\	.	4ff\	.	.	.	.	.	.	.	.	.	.
=93	=93	=93	=93	=93	=93	=93	=93	=93	=93	=93	=93	=93	=93	=93	=93	=93
2.A\	.	2.a\	.	2.dd\	.	4.ff\	.	2.d/_	.	2.dd\]	.	2.ryy	4dd\]	.	4ff\]	.
.	.	.	.	.	.	.	.	.	.	.	.	.	4r	.	4r	.
.	.	.	.	.	.	8gg\	.	.	.	.	.	.	.	.	.	.
.	.	.	.	.	.	4ff\	.	.	.	.	.	.	4r	.	4r	.
=94	=94	=94	=94	=94	=94	=94	=94	=94	=94	=94	=94	=94	=94	=94	=94	=94
2.G#X\	.	2.g#X\	.	4r	.	4r	.	2.d/_	.	[2.dd\	.	2.ryy	[2.dd\	.	2.ff\	.
.	.	.	.	4dd\	.	4ff\	.	.	.	.	.	.	.	.	.	.
.	.	.	.	4dd\	.	4ff\	.	.	.	.	.	.	.	.	.	.
=95	=95	=95	=95	=95	=95	=95	=95	=95	=95	=95	=95	=95	=95	=95	=95	=95
2.A\	.	2.a\)	.	2.dd\	.	4.ff\	.	2.d/_	.	2.dd\_	.	2.ryy	4dd\]	.	4ff\	.
.	.	.	.	.	.	.	.	.	.	.	.	.	4r	.	4r	.
.	.	.	.	.	.	8gg\	.	.	.	.	.	.	.	.	.	.
.	.	.	.	.	.	4ff\	.	.	.	.	.	.	4r	.	4r	.
!	!	!	!	!	!	!LO:LB:g=original	!	!	!	!	!	!	!LO:LB:g=original	!	!LO:LB:g=original	!
=96	=96	=96	=96	=96	=96	=96	=96	=96	=96	=96	=96	=96	=96	=96	=96	=96
!	!	!	!	!	!	!	!	!	!	!	!	!	!	!	!	!LO:DY:b:Bi:t=p&colon;
(2.B-X\)	.	2.b-X\	.	4r	.	4r	.	2.d/]	.	2.dd\_	.	2.ryy	2dd\	.	2ff\	p
.	.	.	.	(4dd'\	.	4ff'\	.	.	.	.	.	.	.	.	.	.
.	.	.	.	4dd'\)	.	4ff'\	.	.	.	.	.	.	4r	.	4r	.
!	!	!	!	!	!	!	!	!LO:LB:g=original	!	!	!	!	!	!	!	!
=97	=97	=97	=97	=97	=97	=97	=97	=97	=97	=97	=97	=97	=97	=97	=97	=97
2.A\	.	2.a\	.	4r	.	4r	.	2.d/	.	2.dd\]	.	2.ryy	2dd\	.	2ff\	.
.	.	.	.	(4dd'\	.	4ff'\	.	.	.	.	.	.	.	.	.	.
.	.	.	.	4dd'\)	.	4ff'\	.	.	.	.	.	.	4r	.	4r	.
=98	=98	=98	=98	=98	=98	=98	=98	=98	=98	=98	=98	=98	=98	=98	=98	=98
!	!	!LO:TX:t=P:problem=brak początku ligatury	!	!	!	!	!	!LO:TX:a:t=8	!	!LO:TX:a:t=8	!	!	!	!	!	!
!	!	!	!	!	!	!	!	!LO:N:vis=00	!	!LO:N:vis=00	!	!	!	!	!	!
[2.G#X\)	.	[2.g#X\	.	4r	.	4r	.	0.r	.	0.r	.	2.ryy	2.dd\	.	[2.ff\	.
.	.	.	.	(4dd'\	.	4ff\	.	.	.	.	.	.	.	.	.	.
.	.	.	.	4dd'\)	.	4ff\	.	.	.	.	.	.	.	.	.	.
!LO:LB:g=original	!	!LO:LB:g=original	!	!	!	!	!	!	!	!	!	!	!	!	!	!
=99	=99	=99	=99	=99	=99	=99	=99	=99	=99	=99	=99	=99	=99	=99	=99	=99
!LO:TX:t=P:problem=brak zakończenia ligatury	!	!	!	!	!	!	!	!	!	!	!	!	!	!	!	!
2.G#X\]	.	2.g#X\]	.	(4dd\	.	(4ff\	.	.	.	.	.	2.ryy	(4dd\	.	4ff\]	.
.	.	.	.	4cc#X\	.	4ee\	.	.	.	.	.	.	4cc#X\	p	4ee\	.
.	.	.	.	4bn\)	.	4dd\)	.	.	.	.	.	.	4bn\)	.	4dd|\	.
!	!	!	!	!LO:LB:g=original	!	!	!	!	!	!	!	!	!	!	!	!
=100	=100	=100	=100	=100	=100	=100	=100	=100	=100	=100	=100	=100	=100	=100	=100	=100
4A\	.	4a\	.	4r	.	4r	.	.	.	.	.	2.ryy	4a/	.	4cc#X\	.
4r	.	4r	.	4a/	.	4cc#X'\	.	.	.	.	.	.	4r	.	4r	.
4r	.	4r	.	4a/	.	4cc#'\	.	.	.	.	.	.	4r	.	4r	.
=101	=101	=101	=101	=101	=101	=101	=101	=101	=101	=101	=101	=101	=101	=101	=101	=101
!	!	!LO:TX:t=1	!	!	!	!LO:SIC:v:s=4.cc#\	!	!	!	!	!	!	!	!	!	!LO:DY:b:Bi:t=p&colon;
2.r	.	2.r	.	4.a/	.	4.cc\	.	.	.	.	.	2.ryy	4.a/	.	4.cc#X|\	p
!	!	!	!	!	!	!LO:TX:a:t=t	!	!	!	!	!	!	!	!	!	!
.	.	.	.	8bn/	.	8dd\	.	.	.	.	.	.	8bn\	.	8dd\	.
.	.	.	.	4cc#X/	.	4ee\	.	.	.	.	.	.	4cc#X\	.	4ee\	.
=102	=102	=102	=102	=102	=102	=102	=102	=102	=102	=102	=102	=102	=102	=102	=102	=102
!	!	!	!	!	!	!	!	!LO:N:vis=00	!	!LO:N:vis=00	!	!	!	!	!	!
[2.G#X\	.	[2.g#X\	.	4r	.	4r	.	0.r	.	0.r	.	2.ryy	4dd\	.	4ffn|\	.
.	.	.	.	4dd\	.	4ff'\	.	.	.	.	.	.	4r	.	4r	.
.	.	.	.	4dd\	.	4ff'\	.	.	.	.	.	.	4r	.	4r	.
=103	=103	=103	=103	=103	=103	=103	=103	=103	=103	=103	=103	=103	=103	=103	=103	=103
2G#\]	.	4g#X\]	.	4.dd\	.	(4ff\	.	.	.	.	.	2.ryy	(4dd\	.	(4ff\	.
.	.	4r	.	.	.	4ee\	.	.	.	.	.	.	4cc#X\	.	4ee\)	.
.	.	.	.	8cc#X\	.	.	.	.	.	.	.	.	.	.	.	.
4r	.	4r	.	4bn\	.	4dd\)	.	.	.	.	.	.	4bn\)	.	4dd|\	.
=104	=104	=104	=104	=104	=104	=104	=104	=104	=104	=104	=104	=104	=104	=104	=104	=104
4A\	.	4a\	.	4a/	.	4cc#X\	.	.	.	.	.	2.ryy	4a/	.	4cc#X\	.
!	!	!	!	!	!	!	!LO:DY:b:Bi:t=for	!	!	!	!	!	!	!	!	!
4E\	.	4e\	.	4cc#X 4e 4A/	.	4aa 4a\	f	.	.	.	.	.	4cc#X\	.	4aa\	.
4C#X/	.	4c#X\	.	4cc# 4e 4A/	.	4aa 4a\	.	.	.	.	.	.	4cc#\	.	4aa\	.
=105	=105	=105	=105	=105	=105	=105	=105	=105	=105	=105	=105	=105	=105	=105	=105	=105
!	!	!	!	!LO:SIC:v:n=1:s=2.cc#	!	!	!	!	!	!	!	!	!	!	!	!
4AA/	.	4A/	.	2.cc 2.e 2.A/	.	2aa 2a\	.	.	.	.	.	2.ryy	4cc\	.	2aa\	.
!	!LO:DY:b:Bi:t=forte	!	!LO:DY:b:Bi:t=forte	!	!	!	!	!	!	!	!	!	!	!	!	!
8A\L	f	8a\L	f	.	.	.	.	.	.	.	.	.	4r	.	.	.
8G\	.	8gn\	.	.	.	.	.	.	.	.	.	.	.	.	.	.
8Fn\	.	8f\	.	.	.	4r	.	.	.	.	.	.	4r	.	4r	.
8E\J	.	8e\J	.	.	.	.	.	.	.	.	.	.	.	.	.	.
!	!	!	!	!	!	!LO:LB:g=original	!	!	!	!	!	!	!LO:LB:g=original	!	!LO:LB:g=original	!
=106	=106	=106	=106	=106	=106	=106	=106	=106	=106	=106	=106	=106	=106	=106	=106	=106
!	!	!	!	!	!LO:DY:b:Bi:t=fortiſ&colon;	!	!	!	!LO:DY:b:Bi:t=for&colon;	!	!LO:DY:b:Bi:t=fortiſ	!	!	!LO:DY:b:Bi:t=for	!	!
2.F\	.	2d\	.	16a/LL	ff	4r	.	4d/	f	4dd/	ff	2.ryy	[2.dd\	f	2.aa\	f
.	.	.	.	16g/	.	.	.	.	.	.	.	.	.	.	.	.
.	.	.	.	16f/	.	.	.	.	.	.	.	.	.	.	.	.
.	.	.	.	16e/JJ	.	.	.	.	.	.	.	.	.	.	.	.
!	!	!	!	!	!	!	!LO:DY:b:rj:Bi:t=fortiſ&colon;	!	!	!	!	!	!	!	!	!
.	.	.	.	4d/	.	(16aa\LL	ff	4d/	.	4dd/	.	.	.	.	.	.
.	.	.	.	.	.	16gg\	.	.	.	.	.	.	.	.	.	.
.	.	.	.	.	.	16ff\	.	.	.	.	.	.	.	.	.	.
.	.	.	.	.	.	16ee\JJ)	.	.	.	.	.	.	.	.	.	.
.	.	4f#X\	.	4dd\	.	4dd|\	.	4d/	.	4dd/	.	.	.	.	.	.
!	!	!	!	!	!	!	!	!	!	!LO:LB:g=original	!	!	!	!	!	!
=107	=107	=107	=107	=107	=107	=107	=107	=107	=107	=107	=107	=107	=107	=107	=107	=107
4G\	.	4g\	.	16b-X/LL	.	4r	.	4d/	.	4dd\	.	2.ryy	2.dd\]	.	2.bb-X\	.
.	.	.	.	16a/	.	.	.	.	.	.	.	.	.	.	.	.
.	.	.	.	16g/	.	.	.	.	.	.	.	.	.	.	.	.
.	.	.	.	16fn/JJ	.	.	.	.	.	.	.	.	.	.	.	.
4B-X\	.	(4b-X\	.	4e/	.	(16bb-X\LL	.	4r	.	4r	.	.	.	.	.	.
.	.	.	.	.	.	16aa\	.	.	.	.	.	.	.	.	.	.
.	.	.	.	.	.	16gg\	.	.	.	.	.	.	.	.	.	.
.	.	.	.	.	.	16ff\JJ)	.	.	.	.	.	.	.	.	.	.
4c\	.	4cc\)	.	4r	.	4ee|\	.	4r	.	4r	.	.	.	.	.	.
!LO:LB:g=original	!	!LO:LB:g=original	!	!LO:LB:g=original	!	!	!	!	!	!	!	!	!	!	!	!
=108	=108	=108	=108	=108	=108	=108	=108	=108	=108	=108	=108	=108	=108	=108	=108	=108
2.En\	.	2c\	.	16g/LL	.	4r	.	4c/	.	4cc\	.	2.ryy	2.ccn\	.	2.bb-\	.
.	.	.	.	16f/	.	.	.	.	.	.	.	.	.	.	.	.
.	.	.	.	16e/	.	.	.	.	.	.	.	.	.	.	.	.
.	.	.	.	16d/JJ	.	.	.	.	.	.	.	.	.	.	.	.
.	.	.	.	4c/	.	(16gg\LL	.	4c/	.	4cc\	.	.	.	.	.	.
.	.	.	.	.	.	16ff\	.	.	.	.	.	.	.	.	.	.
.	.	.	.	.	.	16ee\	.	.	.	.	.	.	.	.	.	.
.	.	.	.	.	.	16dd\JJ)	.	.	.	.	.	.	.	.	.	.
.	.	4en\	.	4cc\	.	4ccn|\	.	4c/	.	4cc\	.	.	.	.	.	.
=109	=109	=109	=109	=109	=109	=109	=109	=109	=109	=109	=109	=109	=109	=109	=109	=109
4F\	.	2f\	.	16a/LL	.	4r	.	4c/	.	4cc\	.	2.ryy	2.cc\	.	2.aa\	.
.	.	.	.	16g/	.	.	.	.	.	.	.	.	.	.	.	.
.	.	.	.	16f/	.	.	.	.	.	.	.	.	.	.	.	.
.	.	.	.	16e/JJ	.	.	.	.	.	.	.	.	.	.	.	.
4A\	.	.	.	4d/	.	(16aa\LL	.	4r	.	4r	.	.	.	.	.	.
.	.	.	.	.	.	16gg\	.	.	.	.	.	.	.	.	.	.
.	.	.	.	.	.	16ff\	.	.	.	.	.	.	.	.	.	.
.	.	.	.	.	.	16ee\JJ)	.	.	.	.	.	.	.	.	.	.
4B-X\	.	4b-X\	.	4r	.	4dd|\	.	4r	.	4r	.	.	.	.	.	.
=110	=110	=110	=110	=110	=110	=110	=110	=110	=110	=110	=110	=110	=110	=110	=110	=110
!	!	!	!	!	!	!	!	!LO:TX:a:t=2	!	!LO:TX:a:t=2	!	!	!	!	!	!
!	!	!	!	!	!	!	!	!LO:N:vis=0	!	!LO:N:vis=0	!	!	!	!	!	!
2.D\	.	2b-X\	.	16f/LL	.	4r	.	1.r	.	1.r	.	2.ryy	[2.b-X\	.	2.aa\	.
.	.	.	.	16e-X/	.	.	.	.	.	.	.	.	.	.	.	.
.	.	.	.	16d/	.	.	.	.	.	.	.	.	.	.	.	.
.	.	.	.	16c/JJ	.	.	.	.	.	.	.	.	.	.	.	.
.	.	.	.	4B-X/	.	(16ff\LL	.	.	.	.	.	.	.	.	.	.
!	!	!	!	!	!	!LO:SIC:v:s=16ee-\	!	!	!	!	!	!	!	!	!	!
.	.	.	.	.	.	16ee\	.	.	.	.	.	.	.	.	.	.
.	.	.	.	.	.	16dd\	.	.	.	.	.	.	.	.	.	.
.	.	.	.	.	.	16cc\JJ)	.	.	.	.	.	.	.	.	.	.
.	.	4d\	.	4b-/	.	4b-X|\	.	.	.	.	.	.	.	.	.	.
=111	=111	=111	=111	=111	=111	=111	=111	=111	=111	=111	=111	=111	=111	=111	=111	=111
4E\	.	2e\	.	16g/LL	.	4r	.	.	.	.	.	2.ryy	2.b-\]	.	2.gg\	.
.	.	.	.	16f/	.	.	.	.	.	.	.	.	.	.	.	.
.	.	.	.	16e/	.	.	.	.	.	.	.	.	.	.	.	.
.	.	.	.	16d/JJ	.	.	.	.	.	.	.	.	.	.	.	.
4G\	.	.	.	4c#X/	.	(16gg\LL	.	.	.	.	.	.	.	.	.	.
.	.	.	.	.	.	16ff\	.	.	.	.	.	.	.	.	.	.
.	.	.	.	.	.	16ee\	.	.	.	.	.	.	.	.	.	.
.	.	.	.	.	.	16dd\JJ)	.	.	.	.	.	.	.	.	.	.
4A\	.	4a\	.	4r	.	4cc#X\	.	.	.	.	.	.	.	.	.	.
!	!	!	!	!	!	!LO:PB:g=original	!	!	!	!	!	!	!	!	!	!
=112	=112	=112	=112	=112	=112	=112	=112	=112	=112	=112	=112	=112	=112	=112	=112	=112
2.C#X/	.	2a\	.	16e/LL	.	4r	.	[2.A/	.	[<2.a\	.	2.ryy	2.a/	.	2.gg\	.
.	.	.	.	16d/	.	.	.	.	.	.	.	.	.	.	.	.
.	.	.	.	16c#X/	.	.	.	.	.	.	.	.	.	.	.	.
!	!	!	!	!LO:SIC:v:s=16Bn/JJ	!	!	!	!	!	!	!	!	!	!	!	!
.	.	.	.	16B-/JJ	.	.	.	.	.	.	.	.	.	.	.	.
.	.	.	.	4A/	.	(16ee\LL	.	.	.	.	.	.	.	.	.	.
.	.	.	.	.	.	16dd\	.	.	.	.	.	.	.	.	.	.
.	.	.	.	.	.	16cc#X\	.	.	.	.	.	.	.	.	.	.
.	.	.	.	.	.	16bn\JJ)	.	.	.	.	.	.	.	.	.	.
.	.	4c#X\	.	4a/	.	4a/	.	.	.	.	.	.	.	.	.	.
=113	=113	=113	=113	=113	=113	=113	=113	=113	=113	=113	=113	=113	=113	=113	=113	=113
*	*	*	*	*tremolo	*	*	*	*	*	*	*	*	*	*	*	*
4D\	.	4d\	.	16dd\LL	.	16dd\LL	.	4A/]	.	4a\]	.	2.ryy	2.dd\	.	2.ffn\	.
.	.	.	.	16dd\	.	16ff\	.	.	.	.	.	.	.	.	.	.
.	.	.	.	16dd\	.	16ff\	.	.	.	.	.	.	.	.	.	.
.	.	.	.	16dd\	.	16ff\JJ	.	.	.	.	.	.	.	.	.	.
(16A\LL	.	4r	.	16dd\	.	16ff\LL	.	4r	.	4r	.	.	.	.	.	.
16G\	.	.	.	16dd\	.	16ff\	.	.	.	.	.	.	.	.	.	.
16F\	.	.	.	16dd\	.	16ff\	.	.	.	.	.	.	.	.	.	.
16E\JJ	.	.	.	16dd\	.	16ff\JJ	.	.	.	.	.	.	.	.	.	.
4D\)	.	4r	.	16dd\	.	16ff\LL	.	4r	.	4r	.	.	.	.	.	.
.	.	.	.	16dd\	.	16ff\	.	.	.	.	.	.	.	.	.	.
.	.	.	.	16dd\	.	16ff\	.	.	.	.	.	.	.	.	.	.
.	.	.	.	16dd\JJ	.	16ff\JJ	.	.	.	.	.	.	.	.	.	.
=114	=114	=114	=114	=114	=114	=114	=114	=114	=114	=114	=114	=114	=114	=114	=114	=114
*	*	*	*	*	*	*tremolo	*	*	*	*	*	*	*	*	*	*
4r	.	4d\	.	16dd\LL	.	16ff\LL	.	2.d/	.	2.dd\	.	2.ryy	2.dd\	.	2.ff\	.
.	.	.	.	16dd\	.	16ff\	.	.	.	.	.	.	.	.	.	.
.	.	.	.	16dd\	.	16ff\	.	.	.	.	.	.	.	.	.	.
.	.	.	.	16dd\	.	16ff\	.	.	.	.	.	.	.	.	.	.
16d\LL	.	4r	.	16dd\	.	16ff\	.	.	.	.	.	.	.	.	.	.
16c#X\	.	.	.	16dd\	.	16ff\	.	.	.	.	.	.	.	.	.	.
16d\	.	.	.	16dd\	.	16ff\	.	.	.	.	.	.	.	.	.	.
16c#\JJ	.	.	.	16dd\	.	16ff\	.	.	.	.	.	.	.	.	.	.
4d\	.	4r	.	16dd\	.	16ff\	.	.	.	.	.	.	.	.	.	.
.	.	.	.	16dd\	.	16ff\	.	.	.	.	.	.	.	.	.	.
.	.	.	.	16dd\	.	16ff\	.	.	.	.	.	.	.	.	.	.
.	.	.	.	16dd\JJ	.	16ff\JJ	.	.	.	.	.	.	.	.	.	.
!LO:LB:g=original	!	!	!	!LO:LB:g=original	!	!	!	!	!	!	!	!	!	!	!	!
=115	=115	=115	=115	=115	=115	=115	=115	=115	=115	=115	=115	=115	=115	=115	=115	=115
*	*	*tremolo	*	*	*	*	*	*	*	*	*	*	*	*	*	*
!	!	!	!	!	!	!	!	!LO:TX:a:t=1	!	!LO:TX:a:t=1	!	!	!	!	!	!
4r	.	16a\LL	.	16ccn\LL	.	16ee-X\LL	.	2.r	.	2.r	.	2.ryy	2.cc\	.	2.ee-X\	.
.	.	16a\	.	16ccn\	.	16ee-X\	.	.	.	.	.	.	.	.	.	.
.	.	16a\	.	16ccn\	.	16ee-X\	.	.	.	.	.	.	.	.	.	.
.	.	16a\	.	16ccn\	.	16ee-X\	.	.	.	.	.	.	.	.	.	.
(16cn\LL	.	16a\	.	16ccn\	.	16ee-X\	.	.	.	.	.	.	.	.	.	.
16B-Xi\	.	16a\	.	16ccn\	.	16ee-X\	.	.	.	.	.	.	.	.	.	.
16A\	.	16a\	.	16ccn\	.	16ee-X\	.	.	.	.	.	.	.	.	.	.
16G\JJ)	.	16a\	.	16ccn\	.	16ee-X\	.	.	.	.	.	.	.	.	.	.
4F\	.	16a\	.	16ccn\	.	16ee-X\	.	.	.	.	.	.	.	.	.	.
.	.	16a\	.	16ccn\	.	16ee-X\	.	.	.	.	.	.	.	.	.	.
.	.	16a\	.	16ccn\	.	16ee-X\	.	.	.	.	.	.	.	.	.	.
.	.	16a\JJ	.	16ccn\JJ	.	16ee-X\JJ	.	.	.	.	.	.	.	.	.	.
=116	=116	=116	=116	=116	=116	=116	=116	=116	=116	=116	=116	=116	=116	=116	=116	=116
!	!	!	!	!	!	!	!	!	!	!	!	!	!	!	!LO:SIC:v:s=2.ee-\	!
4r	.	16a\LL	.	16cc 16f/LL	.	16ee-X\LL	.	[2.F/	.	[<2.f\	.	2.ryy	2.cc\	.	2.ee\	.
.	.	16a\	.	16cc 16f/	.	16ee-X\	.	.	.	.	.	.	.	.	.	.
.	.	16a\	.	16cc 16f/	.	16ee-X\	.	.	.	.	.	.	.	.	.	.
.	.	16a\	.	16cc 16f/	.	16ee-X\	.	.	.	.	.	.	.	.	.	.
(16F\LL	.	16a\	.	16cc 16f/	.	16ee-X\	.	.	.	.	.	.	.	.	.	.
16En\	.	16a\	.	16cc 16f/	.	16ee-X\	.	.	.	.	.	.	.	.	.	.
16F\	.	16a\	.	16cc 16f/	.	16ee-X\	.	.	.	.	.	.	.	.	.	.
16E\JJ)	.	16a\	.	16cc 16f/	.	16ee-X\	.	.	.	.	.	.	.	.	.	.
4F\	.	16a\	.	16cc 16f/	.	16ee-X\	.	.	.	.	.	.	.	.	.	.
.	.	16a\	.	16cc 16f/	.	16ee-X\	.	.	.	.	.	.	.	.	.	.
.	.	16a\	.	16cc 16f/	.	16ee-X\	.	.	.	.	.	.	.	.	.	.
.	.	16a\JJ	.	16cc 16f/JJ	.	16ee-X\JJ	.	.	.	.	.	.	.	.	.	.
*	*	*	*	*	*	*Xtremolo	*	*	*	*	*	*	*	*	*	*
!	!	!LO:LB:g=original	!	!	!	!	!	!	!	!	!	!	!	!	!	!
=117	=117	=117	=117	=117	=117	=117	=117	=117	=117	=117	=117	=117	=117	=117	=117	=117
4BB-X/	.	16b-X\LL	.	16b-X\LL	.	16dd\LL	.	4F/]	.	4f\]	.	2.ryy	4b-X\	.	4dd\	.
.	.	16b-X\	.	16b-X\	.	16dd\	.	.	.	.	.	.	.	.	.	.
.	.	16b-X\	.	16b-X\	.	16dd\	.	.	.	.	.	.	.	.	.	.
.	.	16b-X\JJ	.	16b-X\JJ	.	16dd\JJ	.	.	.	.	.	.	.	.	.	.
*	*	*	*	*	*	*tremolo	*	*	*	*	*	*	*	*	*	*
4r	.	16dd\LL	.	16bb-\LL	.	16ddd\LL	.	4r	.	4r	.	.	4bb-\	.	4ddd\	.
.	.	16dd\	.	16bb-\	.	16ddd\	.	.	.	.	.	.	.	.	.	.
.	.	16dd\	.	16bb-\	.	16ddd\	.	.	.	.	.	.	.	.	.	.
.	.	16dd\JJ	.	16bb-\JJ	.	16ddd\JJ	.	.	.	.	.	.	.	.	.	.
4r	.	16cc\LL	.	16aa\LL	.	16cccn\LL	.	4r	.	4r	.	.	4aa\	.	4ccc\	.
.	.	16cc\	.	16aa\	.	16cccn\	.	.	.	.	.	.	.	.	.	.
.	.	16cc\	.	16aa\	.	16cccn\	.	.	.	.	.	.	.	.	.	.
.	.	16cc\JJ	.	16aa\JJ	.	16cccn\JJ	.	.	.	.	.	.	.	.	.	.
!	!	!	!	!	!	!	!	!LO:LB:g=original	!	!	!	!	!	!	!LO:LB:g=original	!
=118	=118	=118	=118	=118	=118	=118	=118	=118	=118	=118	=118	=118	=118	=118	=118	=118
!LO:TX:a:t=1	!	!	!	!	!	!	!	!LO:TX:a:t=2	!	!LO:TX:a:t=2	!	!	!	!	!	!
!	!	!	!	!	!	!	!	!LO:N:vis=0	!	!LO:N:vis=0	!	!	!	!	!	!
2.r	.	16cc\LL	.	16aa\LL	.	16ccc\LL	.	1.r	.	1.r	.	2.ryy	4aa\	.	4ccc\	.
.	.	16cc\	.	16aa\	.	16ccc\	.	.	.	.	.	.	.	.	.	.
.	.	16cc\	.	16aa\	.	16ccc\	.	.	.	.	.	.	.	.	.	.
.	.	16cc\JJ	.	16aa\JJ	.	16ccc\JJ	.	.	.	.	.	.	.	.	.	.
.	.	16b-X\LL	.	16gg\LL	.	16bb-X\LL	.	.	.	.	.	.	4gg\	.	4bb-\	.
.	.	16b-X\	.	16gg\	.	16bb-X\	.	.	.	.	.	.	.	.	.	.
.	.	16b-X\	.	16gg\	.	16bb-X\	.	.	.	.	.	.	.	.	.	.
.	.	16b-X\JJ	.	16gg\JJ	.	16bb-X\JJ	.	.	.	.	.	.	.	.	.	.
.	.	16a\LL	.	16ff\LL	.	16aa\LL	.	.	.	.	.	.	4ff\	.	4aa\	.
.	.	16a\	.	16ff\	.	16aa\	.	.	.	.	.	.	.	.	.	.
.	.	16a\	.	16ff\	.	16aa\	.	.	.	.	.	.	.	.	.	.
.	.	16a\JJ	.	16ff\JJ	.	16aa\JJ	.	.	.	.	.	.	.	.	.	.
*	*	*	*	*	*	*Xtremolo	*	*	*	*	*	*	*	*	*	*
!	!	!	!	!	!	!LO:LB:g=original	!	!	!	!	!	!	!	!	!	!
=119	=119	=119	=119	=119	=119	=119	=119	=119	=119	=119	=119	=119	=119	=119	=119	=119
(2BB-/	.	16a\LL	.	16dd\LL	.	16aa\LL	.	.	.	.	.	2.ryy	4ff\	.	4aa\	.
.	.	16a\	.	16dd\	.	16aa\	.	.	.	.	.	.	.	.	.	.
.	.	16a\	.	16dd\	.	16aa\	.	.	.	.	.	.	.	.	.	.
.	.	16a\JJ	.	16dd\	.	16aa\JJ	.	.	.	.	.	.	.	.	.	.
*	*	*	*	*	*	*tremolo	*	*	*	*	*	*	*	*	*	*
.	.	16g\LL	.	16dd\	.	16gg\LL	.	.	.	.	.	.	4een\	.	4gg\	.
.	.	16g\	.	16dd\	.	16gg\	.	.	.	.	.	.	.	.	.	.
.	.	16g\	.	16dd\	.	16gg\	.	.	.	.	.	.	.	.	.	.
.	.	16g\JJ	.	16dd\	.	16gg\JJ	.	.	.	.	.	.	.	.	.	.
!	!	!	!	!	!	!	!	!	!	!	!	!	!	!	!LO:TX:t=t	!
4BBn/)	.	16f\LL	.	16dd\	.	16ff\LL	.	.	.	.	.	.	4dd\	.	4ff\	.
.	.	16f\	.	16dd\	.	16ff\	.	.	.	.	.	.	.	.	.	.
.	.	16f\	.	16dd\	.	16ff\	.	.	.	.	.	.	.	.	.	.
.	.	16f\JJ	.	16dd\JJ	.	16ff\JJ	.	.	.	.	.	.	.	.	.	.
*	*	*Xtremolo	*	*Xtremolo	*	*Xtremolo	*	*	*	*	*	*	*	*	*	*
!	!	!	!	!	!	!	!	!	!	!	!	!	!LO:LB:g=original	!	!	!
=120	=120	=120	=120	=120	=120	=120	=120	=120	=120	=120	=120	=120	=120	=120	=120	=120
4C/	.	4e\	.	4cc\	.	4ee\	.	4c/	.	4cc\	.	2.ryy	4cc\	.	4ee\	.
4r	.	4r	.	4r	.	16ccc\LL	.	4r	.	4r	.	.	4r	.	4r	.
.	.	.	.	.	.	16bbn\	.	.	.	.	.	.	.	.	.	.
.	.	.	.	.	.	16aa\	.	.	.	.	.	.	.	.	.	.
.	.	.	.	.	.	16gg\JJ	.	.	.	.	.	.	.	.	.	.
4r	.	4r	.	4r	.	16ccc\LL	.	4r	.	4r	.	.	4r	.	4r	.
.	.	.	.	.	.	16bb\	.	.	.	.	.	.	.	.	.	.
.	.	.	.	.	.	16aa\	.	.	.	.	.	.	.	.	.	.
.	.	.	.	.	.	16gg\JJ	.	.	.	.	.	.	.	.	.	.
=121	=121	=121	=121	=121	=121	=121	=121	=121	=121	=121	=121	=121	=121	=121	=121	=121
4C/	.	4e\	.	4cc\	.	4ccc\	.	4c/	.	4cc\	.	2.ryy	4cc\	.	4ee\	.
4r	.	4r	.	4r	.	16ccc\LL	.	4r	.	4r	.	.	4r	.	4r	.
!	!	!	!	!	!	!LO:SIC:v:s=16bbn\	!	!	!	!	!	!	!	!	!	!
.	.	.	.	.	.	16bb-\	.	.	.	.	.	.	.	.	.	.
.	.	.	.	.	.	16aa\	.	.	.	.	.	.	.	.	.	.
.	.	.	.	.	.	16gg\JJ	.	.	.	.	.	.	.	.	.	.
4r	.	4r	.	4r	.	16ccc\LL	.	4r	.	4r	.	.	4r	.	4r	.
!	!	!	!	!	!	!LO:SIC:v:s=16bbn\	!	!	!	!	!	!	!	!	!	!
.	.	.	.	.	.	16bb-\	.	.	.	.	.	.	.	.	.	.
.	.	.	.	.	.	16aa\	.	.	.	.	.	.	.	.	.	.
.	.	.	.	.	.	16gg\JJ	.	.	.	.	.	.	.	.	.	.
!	!	!	!	!	!	!	!	!	!	!LO:LB:g=original	!	!	!	!	!	!
=122	=122	=122	=122	=122	=122	=122	=122	=122	=122	=122	=122	=122	=122	=122	=122	=122
8r	.	8r	.	4r	.	4ccc\	.	4c/	.	4cc\	.	2.ryy	4cc\	.	4ccc\	.
8c\L	.	8ccn\L	.	.	.	.	.	.	.	.	.	.	.	.	.	.
8G\	.	8g\	.	4e 4G/	.	4cc 4e 4G/	.	4c/	.	4cc\	.	.	4cc\	.	4ee\	.
8c\	.	8cc\	.	.	.	.	.	.	.	.	.	.	.	.	.	.
8E\	.	8e\	.	4e 4G/	.	4cc 4e 4G/	.	4c/	.	4cc\	.	.	4cc\	.	4ee\	.
8G\J	.	8g\J	.	.	.	.	.	.	.	.	.	.	.	.	.	.
!LO:LB:g=original	!	!	!	!	!	!	!	!	!	!	!	!	!	!	!	!
=123	=123	=123	=123	=123	=123	=123	=123	=123	=123	=123	=123	=123	=123	=123	=123	=123
!	!	!	!	!	!	!LO:N:n=3:vis=2	!	!	!	!	!	!	!	!	!	!
2.C/	.	2.c\	.	2.e 2.G/	.	2.cc 2.e 2.G/	.	2.c/	.	2.cc\	.	2.ryy	2cc\	.	2ee\	.
.	.	.	.	.	.	.	.	.	.	.	.	.	4r	.	4r	.
!	!	!	!	!LO:LB:g=original	!	!LO:LB:g=original	!	!	!	!	!	!	!	!	!	!
=124	=124	=124	=124	=124	=124	=124	=124	=124	=124	=124	=124	=124	=124	=124	=124	=124
!	!LO:DY:b:Bi:t=pia	!	!LO:DY:b:Bi:t=pia	!	!LO:DY:b:Bi:t=p&colon;	!	!LO:DY:b:Bi:t=pia dolce	!LO:TX:a:t=9	!	!LO:TX:a:t=9	!	!	!LO:TX:a:t=8	!	!LO:TX:a:t=8	!
!	!	!	!	!	!	!	!	!LO:N:vis=00	!	!LO:N:vis=00	!	!	!LO:N:vis=00	!	!LO:N:vis=00	!
4F\	p	(>2.F/	p	(8A/L	p	(2.f/	p	0.r	.	0.r	.	2.ryy	0.r	.	0.r	.
.	.	.	.	8c/	.	.	.	.	.	.	.	.	.	.	.	.
4r	.	.	.	8A/	.	.	.	.	.	.	.	.	.	.	.	.
.	.	.	.	8c/	.	.	.	.	.	.	.	.	.	.	.	.
4r	.	.	.	8A/	.	.	.	.	.	.	.	.	.	.	.	.
.	.	.	.	8c/J)	.	.	.	.	.	.	.	.	.	.	.	.
=125	=125	=125	=125	=125	=125	=125	=125	=125	=125	=125	=125	=125	=125	=125	=125	=125
4C/	.	2.En/)	.	8B-X/L	.	2.e/	.	.	.	.	.	2.ryy	.	.	.	.
.	.	.	.	8d/	.	.	.	.	.	.	.	.	.	.	.	.
4r	.	.	.	8B-/	.	.	.	.	.	.	.	.	.	.	.	.
.	.	.	.	8d/	.	.	.	.	.	.	.	.	.	.	.	.
4r	.	.	.	8B-/	.	.	.	.	.	.	.	.	.	.	.	.
.	.	.	.	8d/J	.	.	.	.	.	.	.	.	.	.	.	.
!	!	!LO:LB:g=original	!	!	!	!	!	!	!	!	!	!	!	!	!	!
=126	=126	=126	=126	=126	=126	=126	=126	=126	=126	=126	=126	=126	=126	=126	=126	=126
4c\	.	(2.B-X/	.	(8g/L	.	2.b-X\	.	.	.	.	.	2.ryy	.	.	.	.
.	.	.	.	8c/	.	.	.	.	.	.	.	.	.	.	.	.
4r	.	.	.	8g/	.	.	.	.	.	.	.	.	.	.	.	.
.	.	.	.	8c/	.	.	.	.	.	.	.	.	.	.	.	.
4r	.	.	.	8g/	.	.	.	.	.	.	.	.	.	.	.	.
.	.	.	.	8c/J)	.	.	.	.	.	.	.	.	.	.	.	.
=127	=127	=127	=127	=127	=127	=127	=127	=127	=127	=127	=127	=127	=127	=127	=127	=127
.	.	.	.	.	.	8qqcc/	.	.	.	.	.	.	.	.	.	.
4F\	.	2.A/)	.	8f/L	.	8b-/L	.	.	.	.	.	2.ryy	.	.	.	.
.	.	.	.	8c/	.	8a/J)	.	.	.	.	.	.	.	.	.	.
4r	.	.	.	8f/	.	2a/	.	.	.	.	.	.	.	.	.	.
.	.	.	.	8c/	.	.	.	.	.	.	.	.	.	.	.	.
4r	.	.	.	8f/	.	.	.	.	.	.	.	.	.	.	.	.
.	.	.	.	8c/J	.	.	.	.	.	.	.	.	.	.	.	.
=128	=128	=128	=128	=128	=128	=128	=128	=128	=128	=128	=128	=128	=128	=128	=128	=128
!	!	!	!	!	!	!	!	!LO:N:vis=00	!	!LO:N:vis=00	!	!	!LO:N:vis=00	!	!LO:N:vis=00	!
4BB-/	.	4d\	.	(8b-\L	.	4dd'\	.	0.r	.	0.r	.	2.ryy	0.r	.	0.r	.
.	.	.	.	8f\	.	.	.	.	.	.	.	.	.	.	.	.
4r	.	4d\	.	8b-\	.	4dd'\	.	.	.	.	.	.	.	.	.	.
.	.	.	.	8f\	.	.	.	.	.	.	.	.	.	.	.	.
4r	.	4d\	.	8b-\	.	4dd'\	.	.	.	.	.	.	.	.	.	.
.	.	.	.	8f\J)	.	.	.	.	.	.	.	.	.	.	.	.
=129	=129	=129	=129	=129	=129	=129	=129	=129	=129	=129	=129	=129	=129	=129	=129	=129
!LO:TX:a:t=1	!	!	!	!	!	!	!	!	!	!	!	!	!	!	!	!
2.r	.	(4c\	.	(8a/L	.	4cc\	.	.	.	.	.	2.ryy	.	.	.	.
.	.	.	.	8f/	.	.	.	.	.	.	.	.	.	.	.	.
.	.	4en\	.	8g/	.	8.ee\L	.	.	.	.	.	.	.	.	.	.
.	.	.	.	8c/	.	.	.	.	.	.	.	.	.	.	.	.
.	.	.	.	.	.	16gg\Jk	.	.	.	.	.	.	.	.	.	.
.	.	4f\)	.	8f/	.	4ff\	.	.	.	.	.	.	.	.	.	.
.	.	.	.	8a/J)	.	.	.	.	.	.	.	.	.	.	.	.
=130	=130	=130	=130	=130	=130	=130	=130	=130	=130	=130	=130	=130	=130	=130	=130	=130
!	!	!	!	!LO:TX:t=P:problem=mixed beam	!	!	!	!	!	!	!	!	!	!	!	!
4r	.	4g\	.	8b-X\L	.	4gg\	.	.	.	.	.	2.ryy	.	.	.	.
.	.	.	.	8g\	.	.	.	.	.	.	.	.	.	.	.	.
4E\	.	4B-/	.	8c/	.	4b-X/	.	.	.	.	.	.	.	.	.	.
.	.	.	.	8g/	.	.	.	.	.	.	.	.	.	.	.	.
4F\	.	4A/	.	8c/	.	4a/	.	.	.	.	.	.	.	.	.	.
.	.	.	.	8f/J	.	.	.	.	.	.	.	.	.	.	.	.
=131	=131	=131	=131	=131	=131	=131	=131	=131	=131	=131	=131	=131	=131	=131	=131	=131
4C/	.	(8A/L	.	4c/	.	(8a/L	.	.	.	.	.	2.ryy	.	.	.	.
.	.	8G/	.	.	.	8g/	.	.	.	.	.	.	.	.	.	.
4r	.	8F/	.	4r	.	8f/	.	.	.	.	.	.	.	.	.	.
.	.	8E/	.	.	.	8e/)	.	.	.	.	.	.	.	.	.	.
4r	.	8D/)	.	4r	.	8d'/	.	.	.	.	.	.	.	.	.	.
.	.	8C/J	.	.	.	8c'/J	.	.	.	.	.	.	.	.	.	.
!	!	!	!	!LO:PB:g=original	!	!	!	!	!	!	!	!	!	!	!	!
=132	=132	=132	=132	=132	=132	=132	=132	=132	=132	=132	=132	=132	=132	=132	=132	=132
!LO:TX:a:t=6	!	!	!	!	!LO:DY:rj	!	!	!	!	!	!	!	!	!	!	!
!LO:N:vis=00	!	!	!	!	!	!	!	!	!	!	!	!	!	!	!	!LO:DY:b:Bi:t=p&colon;
0.r	.	4F/	.	(8A/L	pp	2.f/	.	2.r	.	2.r	.	2.ryy	(2.a/	.	(2.ff\	p
.	.	.	.	8c/	.	.	.	.	.	.	.	.	.	.	.	.
.	.	4r	.	8A/	.	.	.	.	.	.	.	.	.	.	.	.
.	.	.	.	8c/	.	.	.	.	.	.	.	.	.	.	.	.
.	.	4r	.	8A/	.	.	.	.	.	.	.	.	.	.	.	.
.	.	.	.	8c/J)	.	.	.	.	.	.	.	.	.	.	.	.
=133	=133	=133	=133	=133	=133	=133	=133	=133	=133	=133	=133	=133	=133	=133	=133	=133
.	.	4c\	.	(8G/L	.	2.e/	.	4r	.	4r	.	2.ryy	2.g/)	.	2.een\	.
.	.	.	.	8c/	.	.	.	.	.	.	.	.	.	.	.	.
!	!	!	!	!	!	!	!	!	!LO:DY:rj	!	!	!	!	!	!	!
.	.	4r	.	8G/	.	.	.	4c/	pp	4cc\	pp	.	.	.	.	.
.	.	.	.	8c/	.	.	.	.	.	.	.	.	.	.	.	.
.	.	4r	.	8G/	.	.	.	4c/	.	4cc\	.	.	.	.	.	.
.	.	.	.	8c/J)	.	.	.	.	.	.	.	.	.	.	.	.
=134	=134	=134	=134	=134	=134	=134	=134	=134	=134	=134	=134	=134	=134	=134	=134	=134
.	.	4C/	.	(8g/L	.	4b-X/	.	2.c/	.	2.cc\	.	2.ryy	(2.gg\	.	2.bb-X\	.
.	.	.	.	8c/	.	.	.	.	.	.	.	.	.	.	.	.
.	.	4r	.	8g/	.	4b-/	.	.	.	.	.	.	.	.	.	.
.	.	.	.	8c/	.	.	.	.	.	.	.	.	.	.	.	.
.	.	4r	.	8g/	.	4b-/	.	.	.	.	.	.	.	.	.	.
.	.	.	.	8c/J)	.	.	.	.	.	.	.	.	.	.	.	.
!	!	!	!	!	!	!LO:LB:g=original	!	!	!	!	!	!	!	!	!	!
=135	=135	=135	=135	=135	=135	=135	=135	=135	=135	=135	=135	=135	=135	=135	=135	=135
.	.	.	.	.	.	8qqcc/	.	.	.	.	.	.	8qqaa/	.	8qqccc/	.
.	.	4F/	.	(8f/L	.	8b-/L	.	4r	.	4r	.	2.ryy	8gg\L)	.	8bb-\L	.
.	.	.	.	8c/	.	8a/J	.	.	.	.	.	.	8ff\J	.	8aa\J	.
.	.	4r	.	8f/	.	2a/	.	4F/	.	4f\	.	.	2ff\	.	2aa\)	.
.	.	.	.	8c/	.	.	.	.	.	.	.	.	.	.	.	.
.	.	4r	.	8f/	.	.	.	4F/	.	4f\	.	.	.	.	.	.
.	.	.	.	8c/J)	.	.	.	.	.	.	.	.	.	.	.	.
!	!	!LO:LB:g=original	!	!	!	!	!	!	!	!	!	!	!	!	!LO:LB:g=original	!
=136	=136	=136	=136	=136	=136	=136	=136	=136	=136	=136	=136	=136	=136	=136	=136	=136
!LO:N:vis=0	!	!	!	!	!	!	!	!	!	!	!	!	!	!	!	!
1.r	.	4f\	.	(8A/L	.	(8c/L	.	4F/	.	4f\	.	2.ryy	8a/L	.	(8cc\L	.
.	.	.	.	8B-X/	.	8d/	.	.	.	.	.	.	8b-/	.	8dd\	.
.	.	4r	.	8A/	.	8c/	.	4r	.	4r	.	.	8a/	.	8cc\	.
.	.	.	.	8B-/	.	8d/	.	.	.	.	.	.	8b-/	.	8dd\	.
.	.	4r	.	8A/	.	8c/	.	4r	.	4r	.	.	8a/	.	8cc\	.
.	.	.	.	8B-/J)	.	8d/J)	.	.	.	.	.	.	8b-/J	.	8dd\J)	.
=137	=137	=137	=137	=137	=137	=137	=137	=137	=137	=137	=137	=137	=137	=137	=137	=137
!	!	!	!	!	!	!	!	!LO:TX:a:t=2	!	!LO:TX:a:t=2	!	!	!	!	!	!
!	!	!	!	!	!	!	!	!LO:N:vis=0	!	!LO:N:vis=0	!	!	!	!	!	!
.	.	4F/	.	8A/L	.	(8c/L	.	1.r	.	1.r	.	2.ryy	8a/L	.	(8cc\L	.
.	.	.	.	8B-/J	.	8d/J)	.	.	.	.	.	.	8b-/	.	8dd\)	.
.	.	4r	.	8A/	.	8c/	.	.	.	.	.	.	8a/	.	8cc|\	.
.	.	.	.	8r	.	8r	.	.	.	.	.	.	8b-/	.	8dd|\	.
.	.	4r	.	4r	.	4r	.	.	.	.	.	.	8g/	.	8ee|\	.
.	.	.	.	.	.	.	.	.	.	.	.	.	8a/J	.	8ff|\J	.
!LO:LB:g=original	!	!	!	!	!	!	!	!	!	!	!	!	!	!	!	!
=138	=138	=138	=138	=138	=138	=138	=138	=138	=138	=138	=138	=138	=138	=138	=138	=138
.	.	.	.	.	.	8qqe/	.	.	.	.	.	.	8qqcc/	.	8qqee/	.
4BB-/	.	4B-/	.	4r	.	8d/L	.	.	.	.	.	2.ryy	8b-/L	.	8dd\L	.
.	.	.	.	.	.	16c/L	.	.	.	.	.	.	16a/L	.	16cc\L	.
.	.	.	.	.	.	16B-/JJ	.	.	.	.	.	.	16g/JJ	.	16b-\JJ	.
4C/	.	2c/	.	4c/	.	(8A/L	.	.	.	.	.	.	4f/	.	4a/	.
.	.	.	.	.	.	8c/)	.	.	.	.	.	.	.	.	.	.
!	!	!	!	!	!	!	!	!	!	!	!	!	!LO:TX:t=t	!	!LO:TX:t=t	!
4CC/	.	.	.	4c/	.	8c'/	.	.	.	.	.	.	4e/	.	4g/	.
.	.	.	.	.	.	8c'/J	.	.	.	.	.	.	.	.	.	.
!	!	!	!	!LO:LB:g=original	!	!	!	!	!	!	!	!	!LO:LB:g=original	!	!	!
=139	=139	=139	=139	=139	=139	=139	=139	=139	=139	=139	=139	=139	=139	=139	=139	=139
!LO:TX:t=P:problem=mixed beam	!LO:HP:t=crescendo	!	!LO:HP:t=cres	!	!LO:HP:t=cres&colon;	!	!LO:HP:t=crescendo	!	!LO:HP:t=cres&colon;	!	!LO:HP:t=cres&colon;	!	!	!	!	!
8FF/L	<	(2.f\	<	4f/	<	4f/	<	2.F/	<	2.f\	<	2.ryy	4f/	.	4f/	.
8F\	.	.	.	.	.	.	.	.	.	.	.	.	.	.	.	.
8F\	.	.	.	4a/	.	4ff\	.	.	.	.	.	.	4r	.	4r	.
8F\	.	.	.	.	.	.	.	.	.	.	.	.	.	.	.	.
8F\	.	.	.	4a/	.	4ff\	.	.	.	.	.	.	4r	.	4r	.
8F\J	.	.	.	.	.	.	.	.	.	.	.	.	.	.	.	.
!	!	!	!	!	!	!	!	!LO:LB:g=original	!	!	!	!	!	!	!	!
=140	=140	=140	=140	=140	=140	=140	=140	=140	=140	=140	=140	=140	=140	=140	=140	=140
*tremolo	*	*	*	*	*	*	*	*	*	*	*	*	*	*	*	*
!	!	!	!	!	!	!	!	!	!	!	!	!	!LO:TX:a:t=5	!	!LO:TX:a:t=5	!
.	.	.	.	.	.	8qqgg/	.	.	.	.	.	.	.	.	.	.
!	!	!	!	!	!	!	!	!	!	!	!	!	!LO:N:vis=00	!	!LO:N:vis=00	!
8F\L	.	2.g\	.	2.b-\	.	8ff\L	.	[2.F/	.	2.f\	.	2.ryy	0.r	.	0.r	.
8F\	.	.	.	.	.	8ee\J	.	.	.	.	.	.	.	.	.	.
8F\	.	.	.	.	.	2ee\	.	.	.	.	.	.	.	.	.	.
8F\	.	.	.	.	.	.	.	.	.	.	.	.	.	.	.	.
8F\	.	.	.	.	.	.	.	.	.	.	.	.	.	.	.	.
8F\J	.	.	.	.	.	.	.	.	.	.	.	.	.	.	.	.
=141	=141	=141	=141	=141	=141	=141	=141	=141	=141	=141	=141	=141	=141	=141	=141	=141
8F\L	.	2.a\	.	4r	.	4r	.	2.F/_	.	2.f\	.	2.ryy	.	.	.	.
8F\	.	.	.	.	.	.	.	.	.	.	.	.	.	.	.	.
8F\	.	.	.	4cc\	.	4ee-X\	.	.	.	.	.	.	.	.	.	.
8F\	.	.	.	.	.	.	.	.	.	.	.	.	.	.	.	.
8F\	.	.	.	4cc\	.	4ee-\	.	.	.	.	.	.	.	.	.	.
8F\J	.	.	.	.	.	.	.	.	.	.	.	.	.	.	.	.
!	!	!	!	!	!	!LO:LB:g=original	!	!	!	!	!	!	!	!	!	!
=142	=142	=142	=142	=142	=142	=142	=142	=142	=142	=142	=142	=142	=142	=142	=142	=142
.	.	.	.	8qqdd/	.	8qqff/	.	.	.	.	.	.	.	.	.	.
!	!	!	!	!	!	!LO:SIC:v:s=8ee-\L	!	!	!	!	!	!	!	!	!	!
8F\L	.	2.b-X\)	.	8cc\L	.	8ee\L	.	2.F/]	.	2.f\	.	2.ryy	.	.	.	.
8F\	.	.	.	8b-\J	.	8dd\J	.	.	.	.	.	.	.	.	.	.
8F\	.	.	.	2b-\	.	2dd\	.	.	.	.	.	.	.	.	.	.
8F\	.	.	.	.	.	.	.	.	.	.	.	.	.	.	.	.
8F\	.	.	.	.	.	.	.	.	.	.	.	.	.	.	.	.
8F\J	.	.	.	.	.	.	.	.	.	.	.	.	.	.	.	.
!	!	!	!	!	!	!	!	!	!	!LO:LB:g=original	!	!	!	!	!	!
=143	=143	=143	=143	=143	=143	=143	=143	=143	=143	=143	=143	=143	=143	=143	=143	=143
!	!	!	!	!	!	!	!	!LO:TX:a:t=2	!	!LO:TX:a:t=2	!	!	!	!	!	!
!	!	!	!	!	!	!	!	!LO:N:vis=0	!	!LO:N:vis=0	!	!	!	!	!	!
8F\L	.	(2.f\	.	4r	.	4r	.	1.r	.	1.r	.	2.ryy	.	.	.	.
8F\	.	.	.	.	.	.	.	.	.	.	.	.	.	.	.	.
8F\	.	.	.	4b-\	.	4dd-X\	.	.	.	.	.	.	.	.	.	.
8F\	.	.	.	.	.	.	.	.	.	.	.	.	.	.	.	.
8F\	.	.	.	4b-\	.	4dd-\	.	.	.	.	.	.	.	.	.	.
8F\J	.	.	.	.	.	.	.	.	.	.	.	.	.	.	.	.
=144	=144	=144	=144	=144	=144	=144	=144	=144	=144	=144	=144	=144	=144	=144	=144	=144
8En\L	.	2.en\)	.	4.b-X/	.	4.dd-X\	.	.	.	.	.	2.ryy	2.r	.	2.r	.
8En\	.	.	.	.	.	.	.	.	.	.	.	.	.	.	.	.
8En\	.	.	.	.	.	.	.	.	.	.	.	.	.	.	.	.
8En\	.	.	.	8a/	.	8cc\	.	.	.	.	.	.	.	.	.	.
8En\	.	.	.	4g/	.	4b-\	.	.	.	.	.	.	.	.	.	.
8En\J	.	.	.	.	.	.	.	.	.	.	.	.	.	.	.	.
*Xtremolo	*	*	*	*	*	*	*	*	*	*	*	*	*	*	*	*
=145	=145	=145	=145	=145	=145	=145	=145	=145	=145	=145	=145	=145	=145	=145	=145	=145
!LO:TX:t=P:problem=mixed beam	!LO:DY:b:Bi:t=il for	!	!LO:DY:b:Bi:t=il for	!	!LO:DY:b:Bi:t=il for	!	!	!	!LO:DY:b:rj:Bi:t=for	!	!LO:DY:b:Bi:t=for	!	!	!LO:DY:b:Bi:t=rinfor	!	!
8F\L	f	(2.f\	f	4f/	f	4a/	.	2.F/	f	[2.f\	f	2.ryy	2.a/	rfz	4r	.
8FF/	.	.	.	.	.	.	.	.	.	.	.	.	.	.	.	.
!	!	!	!	!	!	!	!LO:DY:b:Bi:t=il for&colon;	!	!	!	!	!	!	!	!	!LO:DY:b:rj:Bi:t=rinfor
8FF/	.	.	.	4aa\	.	4fff\	f	.	.	.	.	.	.	.	4ff\	rfz
8FF/	.	.	.	.	.	.	.	.	.	.	.	.	.	.	.	.
8FF/	.	.	.	4aa\	.	4fff\	.	.	.	.	.	.	.	.	4ff\	.
8FF/J	.	.	.	.	.	.	.	.	.	.	.	.	.	.	.	.
=146	=146	=146	=146	=146	=146	=146	=146	=146	=146	=146	=146	=146	=146	=146	=146	=146
*tremolo	*	*	*	*	*	*	*	*	*	*	*	*	*	*	*	*
.	.	.	.	.	.	8qqggg/	.	.	.	.	.	.	.	.	8qqgg/	.
8FF/L	.	2.g\	.	2.bb-X\	.	8fff\L	.	2.F/	.	2.f\_<	.	2.ryy	2.b-X\	.	8ff\L	.
8FF/	.	.	.	.	.	8eee\J	.	.	.	.	.	.	.	.	8een\J	.
8FF/	.	.	.	.	.	2eee\	.	.	.	.	.	.	.	.	2ee\	.
8FF/	.	.	.	.	.	.	.	.	.	.	.	.	.	.	.	.
8FF/	.	.	.	.	.	.	.	.	.	.	.	.	.	.	.	.
8FF/J	.	.	.	.	.	.	.	.	.	.	.	.	.	.	.	.
=147	=147	=147	=147	=147	=147	=147	=147	=147	=147	=147	=147	=147	=147	=147	=147	=147
8FF/L	.	2.a\)	.	4r	.	4r	.	2.F/	.	2.f\_<	.	2.ryy	2.cc\	.	4r	.
8FF/	.	.	.	.	.	.	.	.	.	.	.	.	.	.	.	.
8FF/	.	.	.	4ccc\	.	4eee-X\	.	.	.	.	.	.	.	.	4ee-X\	.
8FF/	.	.	.	.	.	.	.	.	.	.	.	.	.	.	.	.
8FF/	.	.	.	4ccc\	.	4eee-\	.	.	.	.	.	.	.	.	4ee-\	.
8FF/J	.	.	.	.	.	.	.	.	.	.	.	.	.	.	.	.
!	!	!LO:PB:g=original	!	!LO:LB:g=original	!	!	!	!	!	!	!	!	!	!	!	!
=148	=148	=148	=148	=148	=148	=148	=148	=148	=148	=148	=148	=148	=148	=148	=148	=148
.	.	.	.	8qqddd/	.	8qqfff/	.	.	.	.	.	.	8qqdd/	.	8qqff/	.
!	!	!	!	!	!	!LO:SIC:v:s=8eee-\L	!	!	!	!	!	!	!	!	!LO:SIC:v:s=8ee-\L	!
8FF/L	.	2.b-X\	.	8ccc\L	.	8eee\L	.	2.F/	.	2.f\]	.	2.ryy	8cc\L	.	8ee\L	.
8FF/	.	.	.	8bb-\J	.	8ddd\J	.	.	.	.	.	.	8b-X\J	.	8dd\J	.
8FF/	.	.	.	2bb-\	.	2ddd\	.	.	.	.	.	.	2b-\	.	2dd\	.
8FF/	.	.	.	.	.	.	.	.	.	.	.	.	.	.	.	.
8FF/	.	.	.	.	.	.	.	.	.	.	.	.	.	.	.	.
8FF/J	.	.	.	.	.	.	.	.	.	.	.	.	.	.	.	.
*Xtremolo	*	*	*	*	*	*	*	*	*	*	*	*	*	*	*	*
!LO:PB:g=original	!	!	!	!	!	!LO:LB:g=original	!	!	!	!	!	!	!	!	!LO:LB:g=original	!
=149	=149	=149	=149	=149	=149	=149	=149	=149	=149	=149	=149	=149	=149	=149	=149	=149
!	!	!	!	!	!	!	!	!LO:TX:b:t=2	!	!LO:TX:a:t=2	!	!	!	!	!	!
!	!	!	!	!	!	!	!	!LO:N:vis=0	!	!LO:N:vis=0	!	!	!	!	!	!
8F\L	.	2.f\	.	4r	.	4r	.	1.r	.	1.r	.	2.ryy	4r	.	4r	.
8F\	.	.	.	.	.	.	.	.	.	.	.	.	.	.	.	.
8F\	.	.	.	4bb-\	.	4ddd-X\	.	.	.	.	.	.	4b-X\	.	4dd-X\	.
8F\	.	.	.	.	.	.	.	.	.	.	.	.	.	.	.	.
8F\	.	.	.	4bb-\	.	4ddd-\	.	.	.	.	.	.	4b-\	.	4dd-\	.
8F\J	.	.	.	.	.	.	.	.	.	.	.	.	.	.	.	.
=150	=150	=150	=150	=150	=150	=150	=150	=150	=150	=150	=150	=150	=150	=150	=150	=150
!	!	!	!	!	!	!LO:SIC:v:s=4.ddd-\	!	!	!	!	!	!	!	!	!	!
2.En\	.	2.en\	.	4.bb-\	.	4.ddd\	.	.	.	.	.	2.ryy	4.b-/	.	4.dd-X\	.
.	.	.	.	8aa\	.	8ccc\	.	.	.	.	.	.	8a/	.	8cc\	.
.	.	.	.	4gg\	.	4bb-\	.	.	.	.	.	.	4g/	.	4b-X\	.
=151	=151	=151	=151	=151	=151	=151	=151	=151	=151	=151	=151	=151	=151	=151	=151	=151
*	*	*	*	*tremolo	*	*	*	*	*	*	*	*	*	*	*	*
!	!LO:DY:b:Bi:t=forte	!	!LO:DY:b:Bi:t=fortiſ	!	!LO:DY:b:Bi:t=fortiſ&colon;	!	!LO:DY:b:Bi:t=fortiſsimo	!	!	!	!	!	!	!	!	!
2F\	f	2f\	ff	16ff\LL	ff	16aa\LL	ff	4r	.	4r	.	2.ryy	4f/	.	4a/	.
.	.	.	.	16ff\	.	16aa\	.	.	.	.	.	.	.	.	.	.
.	.	.	.	16ff\	.	16aa\	.	.	.	.	.	.	.	.	.	.
.	.	.	.	16ff\	.	16aa\JJ	.	.	.	.	.	.	.	.	.	.
!	!	!	!	!	!	!	!	!	!LO:DY:b:Bi:t=forti	!	!LO:DY:b:Bi:t=for	!	!	!	!	!
.	.	.	.	16ff\	.	16aa\LL	.	4F/	ff	4f\	f	.	4r	.	4r	.
.	.	.	.	16ff\	.	16aa\	.	.	.	.	.	.	.	.	.	.
.	.	.	.	16ff\	.	16aa\	.	.	.	.	.	.	.	.	.	.
.	.	.	.	16ff\	.	16aa\JJ	.	.	.	.	.	.	.	.	.	.
4E-X\	.	4e-X\	.	16ff\	.	16aa\LL	.	4F/	.	4f\	.	.	4r	.	4r	.
.	.	.	.	16ff\	.	16aa\	.	.	.	.	.	.	.	.	.	.
.	.	.	.	16ff\	.	16aa\	.	.	.	.	.	.	.	.	.	.
.	.	.	.	16ff\JJ	.	16aa\JJ	.	.	.	.	.	.	.	.	.	.
=152	=152	=152	=152	=152	=152	=152	=152	=152	=152	=152	=152	=152	=152	=152	=152	=152
!	!	!	!	!	!	!	!	!	!	!	!	!	!LO:TX:a:t=3	!	!LO:TX:a:t=3	!
!	!	!	!	!	!	!	!	!	!	!	!	!	!LO:N;vis=0	!	!LO:N:vis=0	!
2D/	.	2d\	.	16ff\LL	.	16bb-\LL	.	4r	.	4r	.	2.ryy	1.r	.	1.r	.
.	.	.	.	16ff\	.	16bb-\	.	.	.	.	.	.	.	.	.	.
.	.	.	.	16ff\	.	16bb-\	.	.	.	.	.	.	.	.	.	.
.	.	.	.	16ff\	.	16bb-\JJ	.	.	.	.	.	.	.	.	.	.
.	.	.	.	16ff\	.	16bb-\LL	.	4F/	.	4f\	.	.	.	.	.	.
.	.	.	.	16ff\	.	16bb-\	.	.	.	.	.	.	.	.	.	.
.	.	.	.	16ff\	.	16bb-\	.	.	.	.	.	.	.	.	.	.
.	.	.	.	16ff\	.	16bb-\JJ	.	.	.	.	.	.	.	.	.	.
4BB-X/	.	4B-/	.	16ff\	.	16bb-\LL	.	4F/	.	4f\	.	.	.	.	.	.
.	.	.	.	16ff\	.	16bb-\	.	.	.	.	.	.	.	.	.	.
.	.	.	.	16ff\	.	16bb-\	.	.	.	.	.	.	.	.	.	.
.	.	.	.	16ff\JJ	.	16bb-\JJ	.	.	.	.	.	.	.	.	.	.
!	!	!	!	!	!	!LO:LB:g=original	!	!	!	!	!	!	!	!	!	!
=153	=153	=153	=153	=153	=153	=153	=153	=153	=153	=153	=153	=153	=153	=153	=153	=153
2AA/	.	2A/	.	16ff\LL	.	16ccc\LL	.	4r	.	4r	.	2.ryy	.	.	.	.
.	.	.	.	16ff\	.	16ccc\	.	.	.	.	.	.	.	.	.	.
.	.	.	.	16ff\	.	16ccc\	.	.	.	.	.	.	.	.	.	.
.	.	.	.	16ff\	.	16ccc\JJ	.	.	.	.	.	.	.	.	.	.
.	.	.	.	16ff\	.	16ccc\LL	.	4F/	.	4f\	.	.	.	.	.	.
.	.	.	.	16ff\	.	16ccc\	.	.	.	.	.	.	.	.	.	.
.	.	.	.	16ff\	.	16ccc\	.	.	.	.	.	.	.	.	.	.
.	.	.	.	16ff\	.	16ccc\JJ	.	.	.	.	.	.	.	.	.	.
4FF/	.	4F/	.	16ff\	.	16ccc\LL	.	4F/	.	4f\	.	.	.	.	.	.
.	.	.	.	16ff\	.	16ccc\	.	.	.	.	.	.	.	.	.	.
.	.	.	.	16ff\	.	16ccc\	.	.	.	.	.	.	.	.	.	.
.	.	.	.	16ff\JJ	.	16ccc\JJ	.	.	.	.	.	.	.	.	.	.
=154	=154	=154	=154	=154	=154	=154	=154	=154	=154	=154	=154	=154	=154	=154	=154	=154
4BB-/	.	4B-/	.	16ff\LL	.	16ddd\LL	.	4r	.	4r	.	2.ryy	2.r	.	2.r	.
.	.	.	.	16ff\	.	16ddd\	.	.	.	.	.	.	.	.	.	.
.	.	.	.	16ff\	.	16ddd\	.	.	.	.	.	.	.	.	.	.
.	.	.	.	16ff\	.	16ddd\JJ	.	.	.	.	.	.	.	.	.	.
4B-\	.	4b-\	.	16ff\	.	16ddd\LL	.	4F/	.	4f\	.	.	.	.	.	.
.	.	.	.	16ff\	.	16ddd\	.	.	.	.	.	.	.	.	.	.
.	.	.	.	16ff\	.	16ddd\	.	.	.	.	.	.	.	.	.	.
.	.	.	.	16ff\	.	16ddd\JJ	.	.	.	.	.	.	.	.	.	.
4r	.	4r	.	16ff\	.	16ddd\LL	.	4F/	.	4f\	.	.	.	.	.	.
.	.	.	.	16ff\	.	16ddd\	.	.	.	.	.	.	.	.	.	.
.	.	.	.	16ff\	.	16ddd\	.	.	.	.	.	.	.	.	.	.
.	.	.	.	16ff\JJ	.	16ddd\JJ	.	.	.	.	.	.	.	.	.	.
=155	=155	=155	=155	=155	=155	=155	=155	=155	=155	=155	=155	=155	=155	=155	=155	=155
*	*	*	*	*	*	*tremolo	*	*	*	*	*	*	*	*	*	*
!	!	!	!	!	!	!	!	!	!	!	!	!	!	!LO:DY:b:Bi:t=for	!	!
4GG/	.	4G/	.	16bb-X\LL	.	16eeen\LL	.	4r	.	4r	.	2.ryy	2.b-X\	f	2.een\	.
.	.	.	.	16bb-X\	.	16eeen\	.	.	.	.	.	.	.	.	.	.
.	.	.	.	16bb-X\	.	16eeen\	.	.	.	.	.	.	.	.	.	.
.	.	.	.	16bb-X\	.	16eeen\	.	.	.	.	.	.	.	.	.	.
4G\	.	4g\	.	16bb-X\	.	16eeen\	.	4c/	.	4cc\	.	.	.	.	.	.
.	.	.	.	16bb-X\	.	16eeen\	.	.	.	.	.	.	.	.	.	.
.	.	.	.	16bb-X\	.	16eeen\	.	.	.	.	.	.	.	.	.	.
.	.	.	.	16bb-X\	.	16eeen\	.	.	.	.	.	.	.	.	.	.
4r	.	4r	.	16bb-X\	.	16eeen\	.	4c/	.	4cc\	.	.	.	.	.	.
.	.	.	.	16bb-X\	.	16eeen\	.	.	.	.	.	.	.	.	.	.
.	.	.	.	16bb-X\	.	16eeen\	.	.	.	.	.	.	.	.	.	.
.	.	.	.	16bb-X\JJ	.	16eeen\JJ	.	.	.	.	.	.	.	.	.	.
!	!	!	!	!	!	!	!	!LO:LB:g=original	!	!	!	!	!	!	!	!
=156	=156	=156	=156	=156	=156	=156	=156	=156	=156	=156	=156	=156	=156	=156	=156	=156
!LO:TX:t=P:problem=mixed beam	!LO:DY:b:Bi:t=fortiſsimo	!	!	!	!	!	!	!	!	!	!LO:DY:b:Bi:t=fortiſ&colon;	!	!	!	!	!
8FF/L	ff	8f\L	.	16aa\LL	.	16fff\LL	.	2.F/	.	[2.f\	ff	2.ryy	2.a/	.	2.ff\	.
.	.	.	.	16aa\	.	16fff\	.	.	.	.	.	.	.	.	.	.
16F\L	.	16f\L	.	16aa\	.	16fff\	.	.	.	.	.	.	.	.	.	.
16G\JJ	.	16g\JJ	.	16aa\	.	16fff\	.	.	.	.	.	.	.	.	.	.
8A\L	.	8a\L	.	16aa\	.	16fff\	.	.	.	.	.	.	.	.	.	.
.	.	.	.	16aa\	.	16fff\	.	.	.	.	.	.	.	.	.	.
8G\	.	8g\	.	16aa\	.	16fff\	.	.	.	.	.	.	.	.	.	.
.	.	.	.	16aa\	.	16fff\	.	.	.	.	.	.	.	.	.	.
8F\	.	8f\	.	16aa\	.	16fff\	.	.	.	.	.	.	.	.	.	.
.	.	.	.	16aa\	.	16fff\	.	.	.	.	.	.	.	.	.	.
8En\J	.	8e\J	.	16aa\	.	16fff\	.	.	.	.	.	.	.	.	.	.
.	.	.	.	16aa\JJ	.	16fff\JJ	.	.	.	.	.	.	.	.	.	.
!	!	!	!	!	!	!	!	!	!	!	!	!	!LO:LB:g=original	!	!	!
=157	=157	=157	=157	=157	=157	=157	=157	=157	=157	=157	=157	=157	=157	=157	=157	=157
8D\L	.	8d\L	.	16aa\LL	.	16fff\LL	.	2.F/	.	2.f\]	.	2.ryy	2.a/	.	2.ff\	.
.	.	.	.	16aa\	.	16fff\	.	.	.	.	.	.	.	.	.	.
16D\L	.	(16d\L	.	16aa\	.	16fff\	.	.	.	.	.	.	.	.	.	.
16E\JJ	.	16en\JJ)	.	16aa\	.	16fff\	.	.	.	.	.	.	.	.	.	.
8F\L	.	8f\L	.	16aa\	.	16fff\	.	.	.	.	.	.	.	.	.	.
.	.	.	.	16aa\	.	16fff\	.	.	.	.	.	.	.	.	.	.
8E\	.	8e\	.	16aa\	.	16fff\	.	.	.	.	.	.	.	.	.	.
.	.	.	.	16aa\	.	16fff\	.	.	.	.	.	.	.	.	.	.
8D\	.	8d\	.	16aa\	.	16fff\	.	.	.	.	.	.	.	.	.	.
.	.	.	.	16aa\	.	16fff\	.	.	.	.	.	.	.	.	.	.
8C\J	.	8c\J	.	16aa\	.	16fff\	.	.	.	.	.	.	.	.	.	.
.	.	.	.	16aa\JJ	.	16fff\JJ	.	.	.	.	.	.	.	.	.	.
!LO:LB:g=original	!	!LO:LB:g=original	!	!LO:LB:g=original	!	!LO:LB:g=original	!	!	!	!LO:LB:g=original	!	!	!	!	!	!
=158	=158	=158	=158	=158	=158	=158	=158	=158	=158	=158	=158	=158	=158	=158	=158	=158
4BB-X/	.	4B-/	.	16gg\LL	.	16fff\LL	.	4r	.	4r	.	2.ryy	2.g/	.	2ff\	.
.	.	.	.	16gg\	.	16fff\	.	.	.	.	.	.	.	.	.	.
.	.	.	.	16gg\	.	16fff\	.	.	.	.	.	.	.	.	.	.
.	.	.	.	16gg\	.	16fff\	.	.	.	.	.	.	.	.	.	.
4C/	.	4c/	.	16gg\	.	16fff\	.	4r	.	4r	.	.	.	.	.	.
.	.	.	.	16gg\	.	16fff\	.	.	.	.	.	.	.	.	.	.
.	.	.	.	16gg\	.	16fff\	.	.	.	.	.	.	.	.	.	.
.	.	.	.	16gg\	.	16fff\JJ	.	.	.	.	.	.	.	.	.	.
4CC/	.	4C/	.	16gg\	.	16eeen\LL	.	4c/	.	4cc\	.	.	.	.	4een\	.
.	.	.	.	16gg\	.	16eeen\	.	.	.	.	.	.	.	.	.	.
.	.	.	.	16gg\	.	16eeen\	.	.	.	.	.	.	.	.	.	.
.	.	.	.	16gg\JJ	.	16eeen\JJ	.	.	.	.	.	.	.	.	.	.
=159	=159	=159	=159	=159	=159	=159	=159	=159	=159	=159	=159	=159	=159	=159	=159	=159
!LO:TX:t=P:problem=mixed beam	!	!LO:TX:t=P:problem=mixed beam	!	!	!	!	!	!	!	!	!	!	!	!	!	!
8FF/L	.	8F/L	.	16aa\LL	.	16fff\LL	.	[2.F/	.	2.f\	.	2.ryy	4a/	.	4ff\	.
.	.	.	.	16aa\	.	16fff\	.	.	.	.	.	.	.	.	.	.
16F\L	.	16f\L	.	16aa\	.	16fff\	.	.	.	.	.	.	.	.	.	.
16G\JJ	.	16g\JJ	.	16aa\	.	16fff\	.	.	.	.	.	.	.	.	.	.
8A\L	.	8a\L	.	16aa\	.	16fff\	.	.	.	.	.	.	4r	.	4r	.
.	.	.	.	16aa\	.	16fff\	.	.	.	.	.	.	.	.	.	.
8G\	.	8g\	.	16aa\	.	16fff\	.	.	.	.	.	.	.	.	.	.
.	.	.	.	16aa\	.	16fff\	.	.	.	.	.	.	.	.	.	.
8F\	.	8f\	.	16aa\	.	16fff\	.	.	.	.	.	.	4r	.	4r	.
.	.	.	.	16aa\	.	16fff\	.	.	.	.	.	.	.	.	.	.
8E\J	.	8e\J	.	16aa\	.	16fff\	.	.	.	.	.	.	.	.	.	.
.	.	.	.	16aa\JJ	.	16fff\JJ	.	.	.	.	.	.	.	.	.	.
=160	=160	=160	=160	=160	=160	=160	=160	=160	=160	=160	=160	=160	=160	=160	=160	=160
8D\L	.	8d\L	.	16aa\LL	.	16fff\LL	.	2.F/]	.	2.f\	.	2.ryy	2.a/	.	2.ff\	.
.	.	.	.	16aa\	.	16fff\	.	.	.	.	.	.	.	.	.	.
16D\L	.	16d\L	.	16aa\	.	16fff\	.	.	.	.	.	.	.	.	.	.
16E\JJ	.	16e\JJ	.	16aa\	.	16fff\	.	.	.	.	.	.	.	.	.	.
8F\L	.	8f\L	.	16aa\	.	16fff\	.	.	.	.	.	.	.	.	.	.
.	.	.	.	16aa\	.	16fff\	.	.	.	.	.	.	.	.	.	.
8E\	.	8e\	.	16aa\	.	16fff\	.	.	.	.	.	.	.	.	.	.
.	.	.	.	16aa\	.	16fff\	.	.	.	.	.	.	.	.	.	.
8D\	.	8d\	.	16aa\	.	16fff\	.	.	.	.	.	.	.	.	.	.
.	.	.	.	16aa\	.	16fff\	.	.	.	.	.	.	.	.	.	.
8C\J	.	8c\J	.	16aa\	.	16fff\	.	.	.	.	.	.	.	.	.	.
.	.	.	.	16aa\JJ	.	16fff\JJ	.	.	.	.	.	.	.	.	.	.
=161	=161	=161	=161	=161	=161	=161	=161	=161	=161	=161	=161	=161	=161	=161	=161	=161
4BB-/	.	4B-/	.	16gg\LL	.	16fff\LL	.	4r	.	4r	.	2.ryy	2.g/	.	2ff\	.
.	.	.	.	16gg\	.	16fff\	.	.	.	.	.	.	.	.	.	.
.	.	.	.	16gg\	.	16fff\	.	.	.	.	.	.	.	.	.	.
.	.	.	.	16gg\	.	16fff\	.	.	.	.	.	.	.	.	.	.
4C/	.	4c/	.	16gg\	.	16fff\	.	4r	.	4r	.	.	.	.	.	.
.	.	.	.	16gg\	.	16fff\	.	.	.	.	.	.	.	.	.	.
.	.	.	.	16gg\	.	16fff\	.	.	.	.	.	.	.	.	.	.
.	.	.	.	16gg\	.	16fff\JJ	.	.	.	.	.	.	.	.	.	.
4CC/	.	4c/	.	16gg\	.	16eee\LL	.	4c/	.	4cc\	.	.	.	.	4een\	.
.	.	.	.	16gg\	.	16eee\	.	.	.	.	.	.	.	.	.	.
.	.	.	.	16gg\	.	16eee\	.	.	.	.	.	.	.	.	.	.
.	.	.	.	16gg\JJ	.	16eee\JJ	.	.	.	.	.	.	.	.	.	.
*	*	*	*	*Xtremolo	*	*Xtremolo	*	*	*	*	*	*	*	*	*	*
!	!	!	!	!	!	!	!	!	!	!	!	!	!	!	!LO:LB:g=original	!
=162	=162	=162	=162	=162	=162	=162	=162	=162	=162	=162	=162	=162	=162	=162	=162	=162
4FF/	.	4F/	.	4aa\	.	4fff\	.	4F/	.	4f\	.	2.ryy	4a/	.	4ff\	.
4r	.	4r	.	4r	.	16fff\LL	.	4r	.	4r	.	.	4r	.	4r	.
.	.	.	.	.	.	16eee\	.	.	.	.	.	.	.	.	.	.
.	.	.	.	.	.	16ddd\	.	.	.	.	.	.	.	.	.	.
.	.	.	.	.	.	16ccc\JJ	.	.	.	.	.	.	.	.	.	.
4r	.	4r	.	4r	.	16fff\LL	.	4r	.	4r	.	.	4r	.	4r	.
.	.	.	.	.	.	16eee\	.	.	.	.	.	.	.	.	.	.
.	.	.	.	.	.	16ddd\	.	.	.	.	.	.	.	.	.	.
.	.	.	.	.	.	16ccc\JJ	.	.	.	.	.	.	.	.	.	.
=163	=163	=163	=163	=163	=163	=163	=163	=163	=163	=163	=163	=163	=163	=163	=163	=163
4FF/	.	4F/	.	4aa 4cc 4f\	.	4fff\	.	4F/	.	4f\	.	2.ryy	4a/	.	4ff\	.
4r	.	4r	.	4r	.	16fff\LL	.	4r	.	4r	.	.	4r	.	4r	.
.	.	.	.	.	.	16eee\	.	.	.	.	.	.	.	.	.	.
.	.	.	.	.	.	16ddd\	.	.	.	.	.	.	.	.	.	.
.	.	.	.	.	.	16ccc\JJ	.	.	.	.	.	.	.	.	.	.
4r	.	4r	.	4r	.	16fff\LL	.	4r	.	4r	.	.	4r	.	4r	.
.	.	.	.	.	.	16eee\	.	.	.	.	.	.	.	.	.	.
.	.	.	.	.	.	16ddd\	.	.	.	.	.	.	.	.	.	.
.	.	.	.	.	.	16ccc\JJ	.	.	.	.	.	.	.	.	.	.
!	!	!	!	!	!	!LO:LB:g=original	!	!	!	!	!	!	!	!	!	!
=164	=164	=164	=164	=164	=164	=164	=164	=164	=164	=164	=164	=164	=164	=164	=164	=164
!LO:TX:t=P:problem=mixed beam	!	!LO:TX:t=P:problem=mixed beam	!	!	!	!	!	!	!	!	!	!	!	!	!	!
8FF/L	.	8F/L	.	4r	.	4fff\	.	4r	.	4r	.	2.ryy	4r	.	4r	.
16F\L	.	16f\L	.	.	.	.	.	.	.	.	.	.	.	.	.	.
16G\JJ	.	16g\JJ	.	.	.	.	.	.	.	.	.	.	.	.	.	.
8A\L	.	8a\L	.	4ff 4cc 4f/	.	4f 4A/	.	4F/	.	4f\	.	.	4a/	.	4ff\	.
8F\	.	8f\	.	.	.	.	.	.	.	.	.	.	.	.	.	.
8C\	.	8c\	.	4ff 4cc 4f/	.	4f 4A/	.	4F/	.	4f\	.	.	4a/	.	4ff\	.
8AA\J	.	8A\J	.	.	.	.	.	.	.	.	.	.	.	.	.	.
=165	=165	=165	=165	=165	=165	=165	=165	=165	=165	=165	=165	=165	=165	=165	=165	=165
2.FF/	.	2.F/	.	2.ff 2.cc 2.f\	.	2.f 2.A/	.	2.F/	.	2.f\	.	2.ryy	2.a/	.	2.ff\	.
!	!	!	!	!	!	!LO:TX:b:t=Vol&colon; Sub	!	!	!	!	!	!	!	!	!	!
=:|!	=:|!	=:|!	=:|!	=:|!	=:|!	=:|!	=:|!	=:|!	=:|!	=:|!	=:|!	=:|!	=:|!	=:|!	=:|!	=:|!
*-	*-	*-	*-	*-	*-	*-	*-	*-	*-	*-	*-	*-	*-	*-	*-	*-
!!!system-decoration: [g1][g2][g3]g4
!!!RDF**kern: | = vertical stroke
!!!RDF**kern: i = editorial accidental
!!!RDF**kern: > = above
!!!RDF**kern: < = below
!!!ENC: Katarzyna Serwa
!!!END: 2022-01-29
!!!ENC: Andrzej Gręziak
!!!END: 2020-09-16
!!!YEC: Copyright 2022 Narodowy Instytut Fryderyka Chopina (https://polishscores.org)
!!!YEM: Licence CC BY 4.0 (https://creativecommons.org/licenses/by/4.0)
